!!!!SEGMENT: pl-cz--iii-204--002_engel-jan--offertorium-2.krn
!!!cenid: 17xx:192
!!!COM: Engel, Jan
!!!COM-rismid: pe30009138
!!!CDT: <1772->1788
!!!CNT:
!!!OTL: Offertorium - 2
!!!PDT:
!!!AGN: Sacred
!!!SMS-siglum: PL-CZ
!!!SMS-shelfmark: III-204
!!!SMS-shelfwork: 002 W
!!!NIFC-rismid:
!!!URL-scan: http://repozytorium.nifc.pl/skany/pl-cz-nut--iii-204
!!!ONB-nifc: UWAGA: części Offertorium: I, II, III, IV
**kern	**dynam	**kern	**dynam	**kern	**dynam	**kern	**text	**kern	**text	**kern	**text	**dynam	**kern	**text	**dynam	**kern	**dynam	**kern	**dynam
*part9	*part9	*part4	*part4	*part3	*part3	*part8	*part8	*part7	*part7	*part6	*part6	*	*part5	*part5	*	*part2	*	*part1	*
*group3	*	*group3	*	*group3	*	*group2	*	*group2	*	*group2	*	*	*group2	*	*	*group1	*	*group1	*
*staff9	*	*staff4	*	*staff3	*	*staff8	*staff8	*staff7	*staff7	*staff6	*staff6	*	*staff5	*staff5	*	*staff2	*	*staff1	*
*Iempty	*	*Ivioln	*	*Ivioln	*	*Iempty	*	*Itenor	*	*Ialto	*	*	*Ivox	*	*	*Iempty	*	*Iempty	*
*I"Baſso.	*	*I"Violino Secondo	*	*I"Violino Primo	*	*I"Baſso.	*	*I"Tenore	*	*I"Alto	*	*	*I"Canto.	*	*	*I"Cornu IIdo in B.	*	*I"Cornu Primo in B.	*
*I'Bc	*	*I'Vn II	*	*I'Vn I	*	*I'B	*	*I'T	*	*I'A	*	*	*I'C	*	*	*I'Cor II	*	*I'Cor I	*
*clefF4	*	*clefG2	*	*clefG2	*	*clefF4	*	*clefC4	*	*clefC3	*	*	*clefC1	*	*	*clefG2	*	*clefG2	*
*	*	*	*	*	*	*	*	*	*	*	*	*	*	*	*	*ITrd1c2	*	*ITrd1c2	*
*k[b-e-]	*	*k[b-e-]	*	*k[b-e-]	*	*k[b-e-]	*	*k[e-b-]	*	*k[e-b-]	*	*	*k[b-e-]	*	*	*k[b-e-]	*	*k[b-e-]	*
*B-:	*	*B-:	*	*B-:	*	*B-:	*	*B-:	*	*B-:	*	*	*B-:	*	*	*	*	*	*
*M2/4	*	*M2/4	*	*M2/4	*	*M2/4	*	*M2/4	*	*M2/4	*	*	*M2/4	*	*	*M2/4	*	*M2/4	*
=1	=1	=1	=1	=1	=1	=1	=1	=1	=1	=1	=1	=1	=1	=1	=1	=1	=1	=1	=1
!LO:TX:a:t=P:problem:znaki D- AA-	!	!	!	!LO:TX:a:t=dolce	!	!LO:TX:a:t=50.	!	!LO:TX:a:t=50.	!	!LO:TX:a:t=43.	!	!	!	!	!	!	!	!	!
!LO:TX:a:t=andante	!	!LO:TX:a:t=Andante	!	!LO:TX:a:t=andante	!	!LO:TX:a:B:t=and&colon;	!	!LO:TX:a:t=andante	!	!LO:TX:a:t=andante	!	!	!LO:TX:a:B:t=Andante	!	!	!	!	!LO:TX:a:t=Andante.	!
*	*below	*	*	*	*	*	*	*	*	*	*	*	*	*	*	*	*	*	*
!	!LO:DY:t=pia&colon;	!	!LO:DY:b:rj:t=pia.	!	!	!LO:TX:b:B:t=pause	!	!LO:TX:a:t=P:problem:kolejność znaków e- B-	!	!LO:TX:a:t=P:problem:kolejność znaków e- B-	!	!	!LO:N:vis=00	!	!	!	!	!	!
8BB-/L	p	8d'/L	p	8b-/L	.	2r	.	2r	.	2r	.	.	0r	.	.	2f/	p	2f/	p
8D/	.	8f'/	.	8f/J	.	.	.	.	.	.	.	.	.	.	.	.	.	.	.
8BB-/	.	8d'/	.	16r	.	.	.	.	.	.	.	.	.	.	.	.	.	.	.
.	.	.	.	16f'/LL	.	.	.	.	.	.	.	.	.	.	.	.	.	.	.
8D/J	.	8f'/J	.	16f'/	.	.	.	.	.	.	.	.	.	.	.	.	.	.	.
.	.	.	.	16f'/JJ	.	.	.	.	.	.	.	.	.	.	.	.	.	.	.
=2	=2	=2	=2	=2	=2	=2	=2	=2	=2	=2	=2	=2	=2	=2	=2	=2	=2	=2	=2
8BB-/L	.	8d/L	.	16f`\LL	.	2r	.	2r	.	2r	.	.	.	.	.	2f/	.	2f/	.
.	.	.	.	(16dd\	.	.	.	.	.	.	.	.	.	.	.	.	.	.	.
8D/	.	8f/	.	16cc\	.	.	.	.	.	.	.	.	.	.	.	.	.	.	.
.	.	.	.	16b-\JJ)	.	.	.	.	.	.	.	.	.	.	.	.	.	.	.
8BB-/	.	8d/	.	16f`\LL	.	.	.	.	.	.	.	.	.	.	.	.	.	.	.
.	.	.	.	(16dd\	.	.	.	.	.	.	.	.	.	.	.	.	.	.	.
8D/J	.	8f/J	.	16cc\	.	.	.	.	.	.	.	.	.	.	.	.	.	.	.
.	.	.	.	16b-\JJ)	.	.	.	.	.	.	.	.	.	.	.	.	.	.	.
=3	=3	=3	=3	=3	=3	=3	=3	=3	=3	=3	=3	=3	=3	=3	=3	=3	=3	=3	=3
!	!	!	!	!LO:TX:a:t=P:problem:mixed beam	!	!	!	!	!	!	!	!	!	!	!	!	!	!	!
8AA/L	.	8c/L	.	8cc'>\L	.	2r	.	2r	.	2r	.	.	.	.	.	2f/	.	2f/	.
8C/	.	8e-/	.	8f'>/J	.	.	.	.	.	.	.	.	.	.	.	.	.	.	.
8AA/	.	8c/	.	16r	.	.	.	.	.	.	.	.	.	.	.	.	.	.	.
.	.	.	.	16f'/LL	.	.	.	.	.	.	.	.	.	.	.	.	.	.	.
8C/J	.	8e-/J	.	16f'/	.	.	.	.	.	.	.	.	.	.	.	.	.	.	.
.	.	.	.	16f'/JJ	.	.	.	.	.	.	.	.	.	.	.	.	.	.	.
=4	=4	=4	=4	=4	=4	=4	=4	=4	=4	=4	=4	=4	=4	=4	=4	=4	=4	=4	=4
!	!	!	!	!LO:TX:a:t=P:problem:mixed beam	!	!	!	!	!	!	!	!	!	!	!	!	!	!	!
8AA/L	.	8c/L	.	16f`>/LL	.	2r	.	2r	.	2r	.	.	.	.	.	2f/	.	2f/	.
.	.	.	.	(16ee-\	.	.	.	.	.	.	.	.	.	.	.	.	.	.	.
8C/	.	8e-/	.	16dd\	.	.	.	.	.	.	.	.	.	.	.	.	.	.	.
.	.	.	.	16cc\JJ)	.	.	.	.	.	.	.	.	.	.	.	.	.	.	.
!	!	!	!	!LO:TX:a:t=P:problem:mixed beam	!	!	!	!	!	!	!	!	!	!	!	!	!	!	!
8AA/	.	8c/	.	16f`>/LL	.	.	.	.	.	.	.	.	.	.	.	.	.	.	.
.	.	.	.	(16ee-\	.	.	.	.	.	.	.	.	.	.	.	.	.	.	.
8C/J	.	8e-/J	.	16dd\	.	.	.	.	.	.	.	.	.	.	.	.	.	.	.
.	.	.	.	16cc\JJ)	.	.	.	.	.	.	.	.	.	.	.	.	.	.	.
=5	=5	=5	=5	=5	=5	=5	=5	=5	=5	=5	=5	=5	=5	=5	=5	=5	=5	=5	=5
!	!	!	!	!LO:LB:g=original	!	!	!	!	!	!	!	!	!	!	!	!	!	!	!
!	!	!	!	!	!	!	!	!	!	!	!	!	!LO:N:vis=00	!	!	!	!	!	!
8BB-/L	.	8.d/L	.	8.dd\L	.	2r	.	2r	.	2r	.	.	0r	.	.	4f/	.	4b-	.
8FF/	.	.	.	.	.	.	.	.	.	.	.	.	.	.	.	.	.	.	.
.	.	16e-/Jk	.	16ee-\Jk	.	.	.	.	.	.	.	.	.	.	.	.	.	.	.
8BB-/	.	(16g/LL	.	16gg\LL	.	.	.	.	.	.	.	.	.	.	.	4r	.	4r	.
.	.	16f/)	.	(16ff\	.	.	.	.	.	.	.	.	.	.	.	.	.	.	.
8FF/J	.	(16e-/	.	16ee-\	.	.	.	.	.	.	.	.	.	.	.	.	.	.	.
.	.	16d/JJ)	.	16dd\JJ)	.	.	.	.	.	.	.	.	.	.	.	.	.	.	.
=6	=6	=6	=6	=6	=6	=6	=6	=6	=6	=6	=6	=6	=6	=6	=6	=6	=6	=6	=6
8AA/L	.	(16d/LL	.	(16dd\LL	.	2r	.	2r	.	2r	.	.	.	.	.	4r	.	4r	.
.	.	16c/)	.	16cc\)	.	.	.	.	.	.	.	.	.	.	.	.	.	.	.
8FF/	.	(16Bn/	.	(16bn\	.	.	.	.	.	.	.	.	.	.	.	.	.	.	.
.	.	16c/JJ)	.	16cc\JJ)	.	.	.	.	.	.	.	.	.	.	.	.	.	.	.
!	!	!	!	!LO:TX:a:t=P:problem:mixed beam	!	!	!	!	!	!	!	!	!	!	!	!	!	!	!
8AA/	.	16c/LL	rfz	16cc\LL	rfz	.	.	.	.	.	.	.	.	.	.	16r	.	16r	.
.	.	16A/	.	(16c/	.	.	.	.	.	.	.	.	.	.	.	(16f\LL	.	(16cc\LL	.
8FF/J	.	16B-X/	.	16d/	.	.	.	.	.	.	.	.	.	.	.	16b-\	.	16dd\	.
.	.	16c/JJ	.	16e-X/JJ)	.	.	.	.	.	.	.	.	.	.	.	16cc\JJ)	.	16ee-\JJ)	.
=7	=7	=7	=7	=7	=7	=7	=7	=7	=7	=7	=7	=7	=7	=7	=7	=7	=7	=7	=7
!LO:LB:g=original	!	!	!	!	!	!	!	!	!	!	!	!	!	!	!	!	!	!	!
.	.	.	.	16qqd/	.	.	.	.	.	.	.	.	.	.	.	.	.	.	.
8BB-/L	.	8.d/L	.	8.dd\L	.	2r	.	2r	.	2r	.	.	.	.	.	4b-\	.	4dd\	.
8FF/	.	.	.	.	.	.	.	.	.	.	.	.	.	.	.	.	.	.	.
.	.	16e-/Jk	.	16ee-\Jk	.	.	.	.	.	.	.	.	.	.	.	.	.	.	.
8BB-/	.	(16g/LL	.	(16gg\LL	.	.	.	.	.	.	.	.	.	.	.	4r	.	4r	.
.	.	16f/)	.	16ff\	.	.	.	.	.	.	.	.	.	.	.	.	.	.	.
8FF/J	.	16e-/	.	16ee-\	.	.	.	.	.	.	.	.	.	.	.	.	.	.	.
.	.	16d/JJ	.	16dd\JJ)	.	.	.	.	.	.	.	.	.	.	.	.	.	.	.
=8	=8	=8	=8	=8	=8	=8	=8	=8	=8	=8	=8	=8	=8	=8	=8	=8	=8	=8	=8
!	!	!LO:LB:g=original	!	!	!	!	!	!	!	!	!	!	!	!	!	!	!	!	!
8AA/L	.	(16d/LL	.	(16dd\LL	.	2r	.	2r	.	2r	.	.	.	.	.	4r	.	4r	.
.	.	16c/	.	16cc\	.	.	.	.	.	.	.	.	.	.	.	.	.	.	.
8FF/	.	16Bn/	.	16bn\)	.	.	.	.	.	.	.	.	.	.	.	.	.	.	.
.	.	16c/JJ)	.	16cc\JJ	.	.	.	.	.	.	.	.	.	.	.	.	.	.	.
!	!	!	!	!LO:TX:a:t=P:problem:mixed beam	!	!	!	!	!	!	!	!	!	!	!	!	!	!	!
8AA/	.	16c/LL	rfz	16cc`>\LL	.	.	.	.	.	.	.	.	.	.	.	16r	.	16r	.
.	.	16A/	.	(16c/	rfz	.	.	.	.	.	.	.	.	.	.	(16f\LL	.	(16cc\LL	.
8FF/J	.	16B-X/	.	16d/	.	.	.	.	.	.	.	.	.	.	.	16b-\	.	16dd\	.
.	.	16c/JJ	.	16e-/JJ)	.	.	.	.	.	.	.	.	.	.	.	16cc\JJ)	.	16ee-\JJ)	.
=9	=9	=9	=9	=9	=9	=9	=9	=9	=9	=9	=9	=9	=9	=9	=9	=9	=9	=9	=9
!	!	!	!	!	!	!	!	!	!	!	!	!	!LO:N:vis=00	!	!	!	!	!	!
8BB-/	f	8d/	.	8d/L	.	2r	.	2r	.	2r	.	.	0r	.	.	8b-\	.	8dd\	.
!	!	!	!	!	!LO:DY:b	!	!	!	!	!	!	!	!	!	!	!	!	!	!
8r	.	32b-/LLL	.	32b-/LL	f	.	.	.	.	.	.	.	.	.	.	8r	.	8r	.
.	.	(32a/	.	32a/	.	.	.	.	.	.	.	.	.	.	.	.	.	.	.
.	.	32g/	.	32g/	.	.	.	.	.	.	.	.	.	.	.	.	.	.	.
.	.	32f/JJJ)	.	32f/JJJ	.	.	.	.	.	.	.	.	.	.	.	.	.	.	.
!	!	!	!	!	!	!	!	!	!	!	!	!	!	!	!	!	!LO:DY:t=for	!	!
16r	.	16en/LL	.	16en'/LL	.	.	.	.	.	.	.	.	.	.	.	4r	f	4r	.
16C'\LL	.	(16c/	.	16c'/	.	.	.	.	.	.	.	.	.	.	.	.	.	.	.
16D'\	.	16d/	.	16d'/	.	.	.	.	.	.	.	.	.	.	.	.	.	.	.
16En'\JJ	.	16e/JJ)	.	16e'/JJ	.	.	.	.	.	.	.	.	.	.	.	.	.	.	.
=10	=10	=10	=10	=10	=10	=10	=10	=10	=10	=10	=10	=10	=10	=10	=10	=10	=10	=10	=10
!	!	!	!	!LO:LB:g=original	!	!	!	!	!	!	!	!	!	!	!	!	!	!	!
8F\	.	8f/	.	8f/L	.	2r	.	2r	.	2r	.	.	.	.	.	8f/	.	8f/	.
8r	.	32b-/LLL	.	(32b-/LL	.	.	.	.	.	.	.	.	.	.	.	8r	.	8r	.
.	.	(32a/	.	32a/	.	.	.	.	.	.	.	.	.	.	.	.	.	.	.
.	.	32g/)	.	32g/	.	.	.	.	.	.	.	.	.	.	.	.	.	.	.
.	.	32f/JJJ	.	32f/JJJ)	.	.	.	.	.	.	.	.	.	.	.	.	.	.	.
16r	.	16en/LL	.	16en'/LL	.	.	.	.	.	.	.	.	.	.	.	4r	.	4r	.
16C'\LL	.	16c'/	.	16c'/	.	.	.	.	.	.	.	.	.	.	.	.	.	.	.
16D'\	.	16d'/	.	16d'/	.	.	.	.	.	.	.	.	.	.	.	.	.	.	.
16En'\JJ	.	16e'/JJ	.	16e'/JJ	.	.	.	.	.	.	.	.	.	.	.	.	.	.	.
=11	=11	=11	=11	=11	=11	=11	=11	=11	=11	=11	=11	=11	=11	=11	=11	=11	=11	=11	=11
!	!	!	!	!	!	!	!	!	!	!	!	!	!	!	!	!LO:LB:g=original	!	!	!
!	!	!	!	!	!LO:DY:b:i:t=ffor&colon;	!	!	!	!	!	!	!	!	!	!	!	!	!	!
8.F\L	.	8.f/L	.	8.f'/L	ff	2r	.	2r	.	2r	.	.	.	.	.	8f/	.	8f/	.
.	.	.	.	.	.	.	.	.	.	.	.	.	.	.	.	8r	.	8r	.
16En\Jk	.	16en/Jk	.	16en'/Jk	.	.	.	.	.	.	.	.	.	.	.	.	.	.	.
16F\LL	.	16f/LL	.	16f'/LL	.	.	.	.	.	.	.	.	.	.	.	4r	.	4r	.
16E'\	.	16e/	.	16e'/	.	.	.	.	.	.	.	.	.	.	.	.	.	.	.
16F'\	.	16f/	.	16f'/	.	.	.	.	.	.	.	.	.	.	.	.	.	.	.
16E'\JJ	.	16e/JJ	.	16e'/JJ	.	.	.	.	.	.	.	.	.	.	.	.	.	.	.
=12	=12	=12	=12	=12	=12	=12	=12	=12	=12	=12	=12	=12	=12	=12	=12	=12	=12	=12	=12
!	!	!	!	!	!	!	!	!	!	!	!	!	!	!	!	!	!	!LO:LB:g=original	!
16F'\LL	.	16f/LL	.	16f'/LL	.	2r	.	2r	.	2r	.	.	.	.	.	2r	.	2r	.
16En'\	.	16en/	.	16en'/	.	.	.	.	.	.	.	.	.	.	.	.	.	.	.
16F'\	.	16f/	.	16f'/	.	.	.	.	.	.	.	.	.	.	.	.	.	.	.
16G'\JJ	.	16g/JJ	.	16g'/JJ	.	.	.	.	.	.	.	.	.	.	.	.	.	.	.
!	!	!LO:LB:g=original	!	!	!	!	!	!	!	!	!	!	!	!	!	!	!	!	!
16F'\LL	.	16f'/LL	.	16f'/LL	.	.	.	.	.	.	.	.	.	.	.	.	.	.	.
16E-X'\	.	16e-X'/	.	16e-X'/	.	.	.	.	.	.	.	.	.	.	.	.	.	.	.
16D'\	.	16d'/	.	16d'/	.	.	.	.	.	.	.	.	.	.	.	.	.	.	.
16C'\JJ	.	16c'/JJ	.	16c'/JJ	.	.	.	.	.	.	.	.	.	.	.	.	.	.	.
=13	=13	=13	=13	=13	=13	=13	=13	=13	=13	=13	=13	=13	=13	=13	=13	=13	=13	=13	=13
!LO:LB:g=original	!	!	!	!	!	!	!	!	!	!	!	!	!	!	!	!	!	!	!
*	*	*	*	*	*	*	*	*	*	*	*	*	*2\right	*	*	*	*	*	*
!	!LO:DY:t=pia&colon;	!	!	!	!LO:DY:t=pia.	!	!	!	!	!	!	!	!LO:TX:a:B:t=Solo.	!	!	!	!LO:DY:t=po.	!	!LO:DY:t=po
8BB-'>/L	p	8d/L	.	8b-/L	p	2r	.	2r	.	2r	.	.	2b-\	Lau-	.	2f/	p	2f/	p
8D'>/	.	8f'/	.	8f/J	.	.	.	.	.	.	.	.	.	.	.	.	.	.	.
8AA'>/	.	8d'/	.	16r	.	.	.	.	.	.	.	.	.	.	.	.	.	.	.
.	.	.	.	16f'/LL	.	.	.	.	.	.	.	.	.	.	.	.	.	.	.
8D'>/J	.	8f'/J	.	16f'/	.	.	.	.	.	.	.	.	.	.	.	.	.	.	.
.	.	.	.	16f'/JJ	.	.	.	.	.	.	.	.	.	.	.	.	.	.	.
=14	=14	=14	=14	=14	=14	=14	=14	=14	=14	=14	=14	=14	=14	=14	=14	=14	=14	=14	=14
!	!	!	!	!	!	!	!	!	!	!	!	!	!LO:TX:a:t=P:problem:caudy często nie do rozszyfrowania czy z lewej, na środku, z prawej	!	!	!	!	!	!
8BB-/L	.	8d'/L	.	16f`\LL	.	2r	.	2r	.	2r	.	.	(8b-\L	.	.	2f/	.	2f/	.
.	.	.	.	(16dd\	.	.	.	.	.	.	.	.	.	.	.	.	.	.	.
8D/	.	8f'/	.	16cc\	.	.	.	.	.	.	.	.	16cc\L	.	.	.	.	.	.
.	.	.	.	16b-\JJ)	.	.	.	.	.	.	.	.	16b-\JJ)	.	.	.	.	.	.
8BB-/	.	8d'/	.	16f`\LL	.	.	.	.	.	.	.	.	(16ee-\LL	.	.	.	.	.	.
.	.	.	.	(16dd\	.	.	.	.	.	.	.	.	16dd\)	.	.	.	.	.	.
8D/J	.	8f'/J	.	16cc\	.	.	.	.	.	.	.	.	(16cc\	-dis	.	.	.	.	.
.	.	.	.	16b-\JJ)	.	.	.	.	.	.	.	.	16b-\JJ)	.	.	.	.	.	.
=15	=15	=15	=15	=15	=15	=15	=15	=15	=15	=15	=15	=15	=15	=15	=15	=15	=15	=15	=15
!	!	!	!	!LO:LB:g=original	!	!	!	!	!	!	!	!	!	!	!	!	!	!	!
!	!	!	!	!LO:TX:a:t=P:problem:mixed beam	!	!	!	!	!	!	!	!	!	!	!	!	!	!	!
8AA/L	.	8c'/L	.	8cc'\L	.	2r	.	2r	.	2r	.	.	2cc\	The-	.	2f/	.	2f/	.
8C/	.	8e-'/	.	8f'/J	.	.	.	.	.	.	.	.	.	.	.	.	.	.	.
8AA/	.	8c'/	.	16r	.	.	.	.	.	.	.	.	.	.	.	.	.	.	.
.	.	.	.	16f'/LL	.	.	.	.	.	.	.	.	.	.	.	.	.	.	.
8C/J	.	8e-'/J	.	16f'/	.	.	.	.	.	.	.	.	.	.	.	.	.	.	.
.	.	.	.	16f'/JJ	.	.	.	.	.	.	.	.	.	.	.	.	.	.	.
=16	=16	=16	=16	=16	=16	=16	=16	=16	=16	=16	=16	=16	=16	=16	=16	=16	=16	=16	=16
!	!	!	!	!LO:TX:a:t=P:problem:mixed beam	!	!	!	!	!	!	!	!	!	!	!	!	!	!	!
8AA/L	.	8c'/L	.	16f'/LL	.	2r	.	2r	.	2r	.	.	8cc\L	.	.	2f/	.	2f/	.
.	.	.	.	(>16ee-\	.	.	.	.	.	.	.	.	.	.	.	.	.	.	.
8C/	.	8e-'/	.	16dd\	.	.	.	.	.	.	.	.	16dd\L	.	.	.	.	.	.
.	.	.	.	16cc\JJ)	.	.	.	.	.	.	.	.	16cc\JJ	.	.	.	.	.	.
8AA/	.	8c'/	.	16f'/LL	.	.	.	.	.	.	.	.	16ff\LL	.	.	.	.	.	.
.	.	.	.	(>16ee-\	.	.	.	.	.	.	.	.	(16ee-\	.	.	.	.	.	.
8C/J	.	8e-'/J	.	16dd\	.	.	.	.	.	.	.	.	(16dd\)	.	.	.	.	.	.
.	.	.	.	16cc\JJ)	.	.	.	.	.	.	.	.	16cc\JJ)	.	.	.	.	.	.
=17	=17	=17	=17	=17	=17	=17	=17	=17	=17	=17	=17	=17	=17	=17	=17	=17	=17	=17	=17
8BB-/L	.	8.d/L	.	8.dd\L	.	2r	.	2r	.	2r	.	.	4b-\	-ma	.	2f/	.	2f/	.
8FF/	.	.	.	.	.	.	.	.	.	.	.	.	.	.	.	.	.	.	.
.	.	16e-/Jk	.	16ee-\Jk	.	.	.	.	.	.	.	.	.	.	.	.	.	.	.
8BB-/	.	(16g/LL	.	16gg\LL	.	.	.	.	.	.	.	.	4r	.	.	.	.	.	.
.	.	16f/	.	16ff\	.	.	.	.	.	.	.	.	.	.	.	.	.	.	.
8FF/J	.	16e-/)	.	16ee-\	.	.	.	.	.	.	.	.	.	.	.	.	.	.	.
.	.	16d/JJ	.	16dd\JJ	.	.	.	.	.	.	.	.	.	.	.	.	.	.	.
=18	=18	=18	=18	=18	=18	=18	=18	=18	=18	=18	=18	=18	=18	=18	=18	=18	=18	=18	=18
8AA/L	.	(16d/LL	.	16dd\LL	.	2r	.	2r	.	2r	.	.	(16dd\LL	Spe-	.	2f/	.	2f/	.
.	.	16c/)	.	16cc\	.	.	.	.	.	.	.	.	16cc\)	.	.	.	.	.	.
8FF/	.	(16Bn/	.	16bn\	.	.	.	.	.	.	.	.	(16bn\	-ci-	.	.	.	.	.
.	.	16c/JJ)	.	16cc\JJ	.	.	.	.	.	.	.	.	16cc\JJ)	.	.	.	.	.	.
!	!	!	!	!	!	!	!	!	!	!	!	!	!LO:LB:g=original	!	!	!	!	!	!
!	!	!	!	!LO:TX:a:t=P:problem:mixed beam	!	!	!	!	!	!	!	!	!	!	!	!	!	!	!
8AA/	.	(16c/LL	rfz	16cc\LL	.	.	.	.	.	.	.	.	(8cc\L	-a-	.	.	.	.	.
.	.	16A/)	.	16c/	.	.	.	.	.	.	.	.	.	.	.	.	.	.	.
8FF/J	.	(16B-X/	.	16d/	.	.	.	.	.	.	.	.	16dd\L)	.	.	.	.	.	.
.	.	16c/JJ)	.	16e-/JJ	.	.	.	.	.	.	.	.	16ee-\JJ	.	.	.	.	.	.
=19	=19	=19	=19	=19	=19	=19	=19	=19	=19	=19	=19	=19	=19	=19	=19	=19	=19	=19	=19
!	!	!LO:LB:g=original	!	!	!	!	!	!	!	!	!	!	!	!	!	!	!	!	!
8BB-/L	.	8.d/L	.	8.dd\L	.	2r	.	2r	.	2r	.	.	4dd\	-lis	.	2f/	.	2f/	.
8FF/	.	.	.	.	.	.	.	.	.	.	.	.	.	.	.	.	.	.	.
.	.	16e-/Jk	.	16ee-\Jk	.	.	.	.	.	.	.	.	.	.	.	.	.	.	.
8BB-/	.	(16g/LL	.	16gg\LL	.	.	.	.	.	.	.	.	4r	.	.	.	.	.	.
.	.	16f/)	.	(16ff\	.	.	.	.	.	.	.	.	.	.	.	.	.	.	.
8FF/J	.	(16e-/	.	16ee-\	.	.	.	.	.	.	.	.	.	.	.	.	.	.	.
.	.	16d/JJ)	.	16dd\JJ)	.	.	.	.	.	.	.	.	.	.	.	.	.	.	.
=20	=20	=20	=20	=20	=20	=20	=20	=20	=20	=20	=20	=20	=20	=20	=20	=20	=20	=20	=20
8AA/L	.	(16d/LL	.	16dd\LL	.	2r	.	2r	.	2r	.	.	16dd\LL	Spe-	.	2f/	.	2f/	.
.	.	16c/)	.	(16cc\	.	.	.	.	.	.	.	.	(16cc\	.	.	.	.	.	.
8FF/	.	(16Bn/	.	16bn\	.	.	.	.	.	.	.	.	16bn\	-ci-	.	.	.	.	.
.	.	16c/JJ)	.	16cc\JJ)	.	.	.	.	.	.	.	.	16cc\JJ)	.	.	.	.	.	.
!	!	!	!	!LO:LB:g=original	!	!	!	!	!	!	!	!	!	!	!	!	!	!	!
!	!	!	!	!LO:TX:a:t=P:problem:mixed beam	!	!	!	!	!	!	!	!	!	!	!	!	!	!	!
8AA/	.	(16c'/LL	.	16cc`\LL	.	.	.	.	.	.	.	.	8cc\L	-a-	.	.	.	.	.
.	.	16A/)	.	(16c/	.	.	.	.	.	.	.	.	.	.	.	.	.	.	.
8FF/J	.	(16B-X/	.	16d/	.	.	.	.	.	.	.	.	16dd\L	.	.	.	.	.	.
.	.	16c/JJ)	.	16e-X/JJ)	.	.	.	.	.	.	.	.	16ee-X\JJ	.	.	.	.	.	.
=21	=21	=21	=21	=21	=21	=21	=21	=21	=21	=21	=21	=21	=21	=21	=21	=21	=21	=21	=21
!	!	!LO:TX:a:t=P:problem:mixed beam	!	!LO:TX:a:t=P:problem:mixed beam	!	!	!	!	!	!	!	!	!	!	!	!	!	!	!
16BB-/LL	.	16d'/LL	.	8d/L	.	2r	.	2r	.	2r	.	.	4dd\	-lis	.	8f/	.	8f/	.
16BB-/	.	16b-'\	.	.	.	.	.	.	.	.	.	.	.	.	.	.	.	.	.
16BB-/	.	16b-'\	.	32bb-\LL	.	.	.	.	.	.	.	.	.	.	.	8r	.	8r	.
.	.	.	.	(>32aa\	.	.	.	.	.	.	.	.	.	.	.	.	.	.	.
16BB-/JJ	.	16b-'\JJ	.	32gg\	.	.	.	.	.	.	.	.	.	.	.	.	.	.	.
.	.	.	.	32ff\JJJ)	.	.	.	.	.	.	.	.	.	.	.	.	.	.	.
16G\LL	.	16b-'\LL	.	8een\	.	.	.	.	.	.	.	.	8r	.	.	4r	.	4r	.
16G\	.	16b-'\	.	.	.	.	.	.	.	.	.	.	.	.	.	.	.	.	.
16G\	.	16b-'\	.	8r	.	.	.	.	.	.	.	.	16een\	Pa-	.	.	.	.	.
16G\JJ	.	16b-'\JJ	.	.	.	.	.	.	.	.	.	.	16ff\	-nis	.	.	.	.	.
=22	=22	=22	=22	=22	=22	=22	=22	=22	=22	=22	=22	=22	=22	=22	=22	=22	=22	=22	=22
!LO:LB:g=original	!	!	!	!	!	!	!	!	!	!	!	!	!	!	!	!	!	!	!
*	*	*^	*	*	*	*	*	*	*	*	*	*	*	*	*	*	*	*	*
*tremolo	*	*tremolo	*tremolo	*	*	*	*	*	*	*	*	*	*	*	*	*	*	*	*	*
*2\right	*	*	*	*	*	*	*	*	*	*	*	*	*	*	*	*	*	*	*	*
!	!	!	!	!	!	!	!	!	!	!	!	!	!	!	!	!	!LO:N:vis=00	!	!LO:N:vis=00	!
16En\LL	.	16b-/LL	16g\LL	.	8r	.	2r	.	2r	.	2r	.	.	8gg\	vi-	.	0r	.	0r	.
16E\	.	16b-/	16g\	.	.	.	.	.	.	.	.	.	.	.	.	.	.	.	.	.
16E\	.	16b-/	16g\	.	32bb-\LLL	.	.	.	.	.	.	.	.	8b-\	-vus	.	.	.	.	.
.	.	.	.	.	(32aa\	.	.	.	.	.	.	.	.	.	.	.	.	.	.	.
16E\	.	16b-/	16g\	.	32gg\	.	.	.	.	.	.	.	.	.	.	.	.	.	.	.
.	.	.	.	.	32ff\JJJ)	.	.	.	.	.	.	.	.	.	.	.	.	.	.	.
16E\	.	16b-/	16g\	.	8een\	.	.	.	.	.	.	.	.	8.b-\	et	.	.	.	.	.
16E\	.	16b-/	16g\	.	.	.	.	.	.	.	.	.	.	.	.	.	.	.	.	.
16E\	.	16b-/	16g\	.	8r	.	.	.	.	.	.	.	.	.	.	.	.	.	.	.
16E\JJ	.	16b-/JJ	16g\JJ	.	.	.	.	.	.	.	.	.	.	32cc\LLL	vi-	.	.	.	.	.
.	.	.	.	.	.	.	.	.	.	.	.	.	.	32b-\JJJ	.	.	.	.	.	.
*	*	*v	*v	*	*	*	*	*	*	*	*	*	*	*	*	*	*	*	*	*
=23	=23	=23	=23	=23	=23	=23	=23	=23	=23	=23	=23	=23	=23	=23	=23	=23	=23	=23	=23
16F\LL	.	16a/LL	.	8r	.	2r	.	2r	.	2r	.	.	8a\	-ta-	.	.	.	.	.
16F\	.	16a/	.	.	.	.	.	.	.	.	.	.	.	.	.	.	.	.	.
16F\	.	16a/	.	(32aa\LLL	.	.	.	.	.	.	.	.	8a\	-lis	.	.	.	.	.
.	.	.	.	32bb-\	.	.	.	.	.	.	.	.	.	.	.	.	.	.	.
16F\	.	16a/	.	32ccc\)	.	.	.	.	.	.	.	.	.	.	.	.	.	.	.
.	.	.	.	32bb-\JJJ	.	.	.	.	.	.	.	.	.	.	.	.	.	.	.
16F\	.	16a/	.	8aa\	.	.	.	.	.	.	.	.	8r	.	.	.	.	.	.
16F\	.	16a/	.	.	.	.	.	.	.	.	.	.	.	.	.	.	.	.	.
16F\	.	16a/	.	8r	.	.	.	.	.	.	.	.	16cc\	Pa-	.	.	.	.	.
16F\JJ	.	16a/JJ	.	.	.	.	.	.	.	.	.	.	16dd\	-nis	.	.	.	.	.
=24	=24	=24	=24	=24	=24	=24	=24	=24	=24	=24	=24	=24	=24	=24	=24	=24	=24	=24	=24
!	!	!	!	!	!	!	!	!	!	!	!	!	!LO:LB:g=original	!	!	!	!	!	!
16F#X\LL	.	16a/LL	.	8r	.	2r	.	2r	.	2r	.	.	8ee-\	vi-	.	.	.	.	.
16F#\	.	16a/	.	.	.	.	.	.	.	.	.	.	.	.	.	.	.	.	.
16F#\	.	16a/	.	32a\LLL	.	.	.	.	.	.	.	.	8ee-\	-vus	.	.	.	.	.
.	.	.	.	32b-\	.	.	.	.	.	.	.	.	.	.	.	.	.	.	.
16F#\	.	16a/	.	32cc\	.	.	.	.	.	.	.	.	.	.	.	.	.	.	.
.	.	.	.	32b-\JJJ	.	.	.	.	.	.	.	.	.	.	.	.	.	.	.
16F#\	.	16a/	.	8a\	.	.	.	.	.	.	.	.	8dd\	et	.	.	.	.	.
16F#\	.	16a/	.	.	.	.	.	.	.	.	.	.	.	.	.	.	.	.	.
16F#\	.	16a/	.	8r	.	.	.	.	.	.	.	.	8cc\	vi-	.	.	.	.	.
16F#\JJ	.	16a/JJ	.	.	.	.	.	.	.	.	.	.	.	.	.	.	.	.	.
=25	=25	=25	=25	=25	=25	=25	=25	=25	=25	=25	=25	=25	=25	=25	=25	=25	=25	=25	=25
!	!	!	!	!LO:LB:g=original	!	!	!	!	!	!	!	!	!	!	!	!	!	!	!
16G\LL	.	16b-/LL	.	8r	.	2r	.	2r	.	2r	.	.	4.b-\	-ta-	.	.	.	.	.
16G\	.	16b-/	.	.	.	.	.	.	.	.	.	.	.	.	.	.	.	.	.
16G\	.	16b-/	.	32gg\LLL	.	.	.	.	.	.	.	.	.	.	.	.	.	.	.
.	.	.	.	(32ff#X\	.	.	.	.	.	.	.	.	.	.	.	.	.	.	.
16G\	.	16b-/	.	32gg\)	.	.	.	.	.	.	.	.	.	.	.	.	.	.	.
.	.	.	.	32aa\JJJ	.	.	.	.	.	.	.	.	.	.	.	.	.	.	.
16G\	.	16b-/	.	8bb-\	.	.	.	.	.	.	.	.	.	.	.	.	.	.	.
16G\	.	16b-/	.	.	.	.	.	.	.	.	.	.	.	.	.	.	.	.	.
16G\	.	16b-/	.	8r	.	.	.	.	.	.	.	.	(32b-\LLL	.	.	.	.	.	.
.	.	.	.	.	.	.	.	.	.	.	.	.	32cc\)	.	.	.	.	.	.
16G\JJ	.	16b-/JJ	.	.	.	.	.	.	.	.	.	.	(32b-\	.	.	.	.	.	.
.	.	.	.	.	.	.	.	.	.	.	.	.	32cc\JJJ)	.	.	.	.	.	.
=26	=26	=26	=26	=26	=26	=26	=26	=26	=26	=26	=26	=26	=26	=26	=26	=26	=26	=26	=26
!	!	!	!	!	!	!	!	!	!	!	!	!	!	!	!	!LO:N:vis=0	!	!LO:N:vis=0	!
16BB-/LL	.	16g/LL	.	8r	.	2r	.	2r	.	2r	.	.	4.dd\	.	.	1r	.	1r	.
16BB-/	.	16g/	.	.	.	.	.	.	.	.	.	.	.	.	.	.	.	.	.
16BB-/	.	16g/	.	32bb-\LLL	.	.	.	.	.	.	.	.	.	.	.	.	.	.	.
.	.	.	.	(32aa\	.	.	.	.	.	.	.	.	.	.	.	.	.	.	.
16BB-/	.	16g/	.	32bb-\)	.	.	.	.	.	.	.	.	.	.	.	.	.	.	.
.	.	.	.	32ccc\JJJ	.	.	.	.	.	.	.	.	.	.	.	.	.	.	.
16BB-/	.	16g/	.	8ddd\	.	.	.	.	.	.	.	.	.	.	.	.	.	.	.
16BB-/	.	16g/	.	.	.	.	.	.	.	.	.	.	.	.	.	.	.	.	.
16BB-/	.	16g/	.	8r	.	.	.	.	.	.	.	.	(32b-\LLL	.	.	.	.	.	.
.	.	.	.	.	.	.	.	.	.	.	.	.	32cc\)	.	.	.	.	.	.
16BB-/JJ	.	16g/JJ	.	.	.	.	.	.	.	.	.	.	(32b-\	.	.	.	.	.	.
.	.	.	.	.	.	.	.	.	.	.	.	.	32cc\JJJ)	.	.	.	.	.	.
*Xtremolo	*	*Xtremolo	*	*	*	*	*	*	*	*	*	*	*	*	*	*	*	*	*
=27	=27	=27	=27	=27	=27	=27	=27	=27	=27	=27	=27	=27	=27	=27	=27	=27	=27	=27	=27
!	!	!LO:LB:g=original	!	!	!	!	!	!	!	!	!	!	!	!	!	!	!	!	!
4.BB-/	.	8g/L	.	8r	.	2r	.	2r	.	2r	.	.	8dd\L	.	.	.	.	.	.
.	.	(16b-/L	.	(16ddd\LL	.	.	.	.	.	.	.	.	(16dd\L	.	.	.	.	.	.
.	.	16a/JJ)	.	16ccc\JJ)	.	.	.	.	.	.	.	.	16cc\JJ)	.	.	.	.	.	.
.	.	(16a/LL	.	(16ccc\LL	.	.	.	.	.	.	.	.	(16cc\LL	.	.	.	.	.	.
.	.	16g/)	.	16bb-\JJ)	.	.	.	.	.	.	.	.	16b-\)	.	.	.	.	.	.
8BBn/	.	(16g/	.	(16bb-LL\	.	.	.	.	.	.	.	.	(16b-\	.	.	.	.	.	.
.	.	16f/JJ)	.	16aa\JJ)	.	.	.	.	.	.	.	.	16a\JJ)	.	.	.	.	.	.
=28	=28	=28	=28	=28	=28	=28	=28	=28	=28	=28	=28	=28	=28	=28	=28	=28	=28	=28	=28
*	*	*	*	*Xtuplet	*	*	*	*	*	*	*	*	*	*	*	*	*	*	*
8C'\L	.	8en/L	.	24gg'\LL	.	2r	.	2r	.	2r	.	.	8.g\L	.	.	2r	.	2r	.
.	.	.	.	24cc'\	.	.	.	.	.	.	.	.	.	.	.	.	.	.	.
.	.	.	.	24cc'\JJ	.	.	.	.	.	.	.	.	.	.	.	.	.	.	.
8En'\	.	8g'/	.	24cc'\LL	.	.	.	.	.	.	.	.	.	.	.	.	.	.	.
.	.	.	.	24cc'\	.	.	.	.	.	.	.	.	.	.	.	.	.	.	.
.	.	.	.	.	.	.	.	.	.	.	.	.	16cc\Jk	.	.	.	.	.	.
.	.	.	.	24cc'\JJ	.	.	.	.	.	.	.	.	.	.	.	.	.	.	.
8C'\	.	8e'/	.	24cc'\LL	.	.	.	.	.	.	.	.	16cc\LL	.	.	.	.	.	.
.	.	.	.	24cc'\	.	.	.	.	.	.	.	.	.	.	.	.	.	.	.
.	.	.	.	.	.	.	.	.	.	.	.	.	16een\	.	.	.	.	.	.
.	.	.	.	24cc'\JJ	.	.	.	.	.	.	.	.	.	.	.	.	.	.	.
8E'\J	.	8g'/J	.	24cc'\LL	.	.	.	.	.	.	.	.	16ee\	.	.	.	.	.	.
.	.	.	.	24cc'\	.	.	.	.	.	.	.	.	.	.	.	.	.	.	.
.	.	.	.	.	.	.	.	.	.	.	.	.	16gg\JJ	.	.	.	.	.	.
.	.	.	.	24cc'\JJ	.	.	.	.	.	.	.	.	.	.	.	.	.	.	.
=29	=29	=29	=29	=29	=29	=29	=29	=29	=29	=29	=29	=29	=29	=29	=29	=29	=29	=29	=29
!	!	!	!	!LO:LB:g=original	!	!	!	!	!	!	!	!	!	!	!	!	!	!	!
*Xtuplet	*	*Xtuplet	*	*	*	*	*	*	*	*	*	*	*	*	*	*	*	*	*
!	!	!LO:TX:a:t=P:problem:mixed beam	!	!	!LO:DY:b:t=for.	!	!	!	!	!	!	!	!	!	!	!	!	!	!
24C'/LL	f	24en/LL	.	24cc\LL	f	2r	.	2r	.	2r	.	.	4gg\	.	.	8cc\L	.	8cc\L	f
24c'\	.	24gg\	.	24bb-\	.	.	.	.	.	.	.	.	.	.	.	.	.	.	.
!	!	!	!LO:DY:b:t=for	!	!	!	!	!	!	!	!	!	!	!	!	!	!	!	!
24c'\JJ	.	24gg\JJ	f	24bb-\JJ	.	.	.	.	.	.	.	.	.	.	.	.	.	.	.
24c'\LL	.	24gg\LL	.	24bb-\LL	.	.	.	.	.	.	.	.	.	.	.	8cc\	.	8cc\	.
24c'\	.	24gg\	.	24bb-\	.	.	.	.	.	.	.	.	.	.	.	.	.	.	.
24c'\JJ	.	24gg\JJ	.	24bb-\JJ	.	.	.	.	.	.	.	.	.	.	.	.	.	.	.
8c\	.	8gg\	.	8bb-\	.	.	.	.	.	.	.	.	4r	.	.	8cc\J	.	8cc\J	.
8r	.	8r	.	8r	.	.	.	.	.	.	.	.	.	.	.	8r	.	8r	.
=30	=30	=30	=30	=30	=30	=30	=30	=30	=30	=30	=30	=30	=30	=30	=30	=30	=30	=30	=30
!LO:LB:g=original	!LO:DY:t=pia&colon;	!	!	!	!LO:DY:b:t=pia.	!	!	!	!	!	!	!	!LO:LB:g=original	!	!	!	!	!	!
8F'\L	p	8a'\L	.	24aa'\LL	p	2r	.	2r	.	2r	.	.	8.a\L	.	.	2r	.	2r	.
.	.	.	.	24cc'\	.	.	.	.	.	.	.	.	.	.	.	.	.	.	.
.	.	.	.	24cc'\JJ	.	.	.	.	.	.	.	.	.	.	.	.	.	.	.
!	!	!	!LO:DY:b:t=po	!	!	!	!	!	!	!	!	!	!	!	!	!	!	!	!
8A'\	.	8cc'\	p	24cc'\LL	.	.	.	.	.	.	.	.	.	.	.	.	.	.	.
.	.	.	.	24cc'\	.	.	.	.	.	.	.	.	.	.	.	.	.	.	.
.	.	.	.	.	.	.	.	.	.	.	.	.	16cc\Jk	.	.	.	.	.	.
.	.	.	.	24cc'\JJ	.	.	.	.	.	.	.	.	.	.	.	.	.	.	.
8F'\	.	8a'\	.	24cc'\LL	.	.	.	.	.	.	.	.	(16cc\LL	.	.	.	.	.	.
.	.	.	.	24cc'\	.	.	.	.	.	.	.	.	.	.	.	.	.	.	.
.	.	.	.	.	.	.	.	.	.	.	.	.	16ff\	.	.	.	.	.	.
.	.	.	.	24cc'\JJ	.	.	.	.	.	.	.	.	.	.	.	.	.	.	.
8A'\J	.	8cc'\J	.	24cc'\LL	.	.	.	.	.	.	.	.	16ff\)	.	.	.	.	.	.
.	.	.	.	24cc'\	.	.	.	.	.	.	.	.	.	.	.	.	.	.	.
.	.	.	.	.	.	.	.	.	.	.	.	.	16aa\JJ	.	.	.	.	.	.
.	.	.	.	24cc'\JJ	.	.	.	.	.	.	.	.	.	.	.	.	.	.	.
=31	=31	=31	=31	=31	=31	=31	=31	=31	=31	=31	=31	=31	=31	=31	=31	=31	=31	=31	=31
!	!	!	!	!	!LO:DY:b	!	!	!	!	!	!	!	!	!	!	!LO:LB:g=original	!	!	!
24F\LL	.	24a\LL	.	24cc\LL	f	2r	.	2r	.	2r	.	.	4aa\	.	.	8f/L	.	8cc\L	.
!	!LO:DY:t=for.	!	!	!	!	!	!	!	!	!	!	!	!	!	!	!	!	!	!
24c\	f	24ff\	.	24aa\	.	.	.	.	.	.	.	.	.	.	.	.	.	.	.
!	!	!	!LO:DY:b:t=for	!	!	!	!	!	!	!	!	!	!	!	!	!	!	!	!
24c\JJ	.	24ff\JJ	f	24aa\JJ	.	.	.	.	.	.	.	.	.	.	.	.	.	.	.
24c\LL	.	24ff\LL	.	24aa\LL	.	.	.	.	.	.	.	.	.	.	.	8f/	.	8cc\	.
24c\	.	24ff\	.	24aa\	.	.	.	.	.	.	.	.	.	.	.	.	.	.	.
24c\JJ	.	24ff\JJ	.	24aa\JJ	.	.	.	.	.	.	.	.	.	.	.	.	.	.	.
8c\	.	8ff\	.	8aa\	.	.	.	.	.	.	.	.	4r	.	.	8f/J	.	8cc\J	.
8r	.	8r	.	8r	.	.	.	.	.	.	.	.	.	.	.	8r	.	8r	.
=32	=32	=32	=32	=32	=32	=32	=32	=32	=32	=32	=32	=32	=32	=32	=32	=32	=32	=32	=32
!	!	!	!	!	!LO:DY:b:t=pia.	!	!	!	!	!	!	!	!	!	!	!	!	!LO:LB:g=original	!
!	!	!	!LO:DY:b:t=po	!	!	!	!	!	!	!	!	!	!	!	!	!	!	!	!
8D'\L	.	8f'/L	p	24ff'\LL	p	2r	.	2r	.	2r	.	.	8.bn\L	.	.	2r	.	2r	.
.	.	.	.	24bn'\	.	.	.	.	.	.	.	.	.	.	.	.	.	.	.
.	.	.	.	24b'\JJ	.	.	.	.	.	.	.	.	.	.	.	.	.	.	.
!	!LO:DY:t=po.	!	!	!	!	!	!	!	!	!	!	!	!	!	!	!	!	!	!
8F'\	p	8a-X'/	.	24b'\LL	.	.	.	.	.	.	.	.	.	.	.	.	.	.	.
.	.	.	.	24b\	.	.	.	.	.	.	.	.	.	.	.	.	.	.	.
.	.	.	.	.	.	.	.	.	.	.	.	.	(16dd\Jk	.	.	.	.	.	.
.	.	.	.	24b\JJ	.	.	.	.	.	.	.	.	.	.	.	.	.	.	.
8D'\	.	8f'/	.	24b\LL	.	.	.	.	.	.	.	.	16dd\LL	.	.	.	.	.	.
.	.	.	.	24b\	.	.	.	.	.	.	.	.	.	.	.	.	.	.	.
.	.	.	.	.	.	.	.	.	.	.	.	.	16ff\)	.	.	.	.	.	.
.	.	.	.	24b\JJ	.	.	.	.	.	.	.	.	.	.	.	.	.	.	.
8F'\J	.	8a-'/J	.	24b\LL	.	.	.	.	.	.	.	.	(16ff\	.	.	.	.	.	.
.	.	.	.	24b\	.	.	.	.	.	.	.	.	.	.	.	.	.	.	.
.	.	.	.	.	.	.	.	.	.	.	.	.	16dd\JJ)	.	.	.	.	.	.
.	.	.	.	24b\JJ	.	.	.	.	.	.	.	.	.	.	.	.	.	.	.
=33	=33	=33	=33	=33	=33	=33	=33	=33	=33	=33	=33	=33	=33	=33	=33	=33	=33	=33	=33
!	!	!LO:LB:g=original	!	!LO:LB:g=original	!	!	!	!	!	!	!	!	!	!	!	!	!	!	!
!	!	!LO:TX:a:t=P:problem:mixed beam	!LO:LB:g=origina	!LO:SIC:s=bn:v	!LO:DY:b	!	!	!	!	!	!	!	!	!	!	!	!	!	!
24D'\LL	.	24f/LL	.	24b-\LL	f	2r	.	2r	.	2r	.	.	4bn\	-lis	.	8d/L	.	8dd\L	.
!	!LO:DY:t=for	!	!LO:DY:b	!	!	!	!	!	!	!	!	!	!	!	!	!	!	!	!
24Bn'\	f	24ff\	f	24aa-X\	.	.	.	.	.	.	.	.	.	.	.	.	.	.	.
24B'\JJ	.	24ff\JJ	.	24aa-\JJ	.	.	.	.	.	.	.	.	.	.	.	.	.	.	.
24B'\LL	.	24ff\LL	.	24aa-\LL	.	.	.	.	.	.	.	.	.	.	.	8d/	.	8dd\	.
24B'\	.	24ff\	.	24aa-\	.	.	.	.	.	.	.	.	.	.	.	.	.	.	.
24B'\JJ	.	24ff\JJ	.	24aa-\JJ	.	.	.	.	.	.	.	.	.	.	.	.	.	.	.
8B\	.	8ff\	.	8aa-\	.	.	.	.	.	.	.	.	4r	.	.	8d/J	.	8dd\J	.
8r	.	8r	.	8r	.	.	.	.	.	.	.	.	.	.	.	8r	.	8r	.
=34	=34	=34	=34	=34	=34	=34	=34	=34	=34	=34	=34	=34	=34	=34	=34	=34	=34	=34	=34
!	!	!	!LO:DY:b	!	!LO:DY:b:t=pia.	!	!	!	!	!	!	!	!	!	!	!LO:N:vis=00	!	!LO:N:vis=00	!
8r	.	8r	p	8.cc\L	p	2r	.	2r	.	2r	.	.	8.cc\L	ho-	.	0r	.	0r	.
!	!LO:DY:t=pia&colon;	!	!	!	!	!	!	!	!	!	!	!	!	!	!	!	!	!	!
8C/L	p	8enL 8G/	.	.	.	.	.	.	.	.	.	.	.	.	.	.	.	.	.
.	.	.	.	16dd\Jk	.	.	.	.	.	.	.	.	16dd\Jk	-di-	.	.	.	.	.
8C/	.	8e 8G/	.	8een\	.	.	.	.	.	.	.	.	8een\	-e	.	.	.	.	.
8C/J	.	8eJ 8G/	.	8r	.	.	.	.	.	.	.	.	8r	.	.	.	.	.	.
=35	=35	=35	=35	=35	=35	=35	=35	=35	=35	=35	=35	=35	=35	=35	=35	=35	=35	=35	=35
*	*	*	*	*	*	*	*	*	*	*	*	*	*	*ij	*	*	*	*	*
8r	.	8r	.	8.een\L	.	2r	.	2r	.	2r	.	.	8.een\L	ho-	.	.	.	.	.
8C/L	.	8enL 8G/	.	.	.	.	.	.	.	.	.	.	.	.	.	.	.	.	.
.	.	.	.	16ff\k	.	.	.	.	.	.	.	.	16ff\Jk	-di-	.	.	.	.	.
8C/	.	8e 8G/	.	8gg\J	.	.	.	.	.	.	.	.	8gg\	-e	.	.	.	.	.
*	*	*	*	*	*	*	*	*	*	*	*	*	*	*Xij	*	*	*	*	*
8C/J	.	8eJ 8G/	.	8r	.	.	.	.	.	.	.	.	8r	.	.	.	.	.	.
=36	=36	=36	=36	=36	=36	=36	=36	=36	=36	=36	=36	=36	=36	=36	=36	=36	=36	=36	=36
!LO:LB:g=original	!	!	!	!	!	!	!	!	!	!	!	!	!	!	!	!	!	!	!
8r	.	8r	.	8.gg\L	.	2r	.	2r	.	2r	.	.	8.gg\L	ho-	.	.	.	.	.
8C/L	.	8enL 8G/	.	.	.	.	.	.	.	.	.	.	.	.	.	.	.	.	.
.	.	.	.	16aa\k	.	.	.	.	.	.	.	.	16aa\Jk	-di-	.	.	.	.	.
8C/	.	8e 8G/	.	8bb-\J	.	.	.	.	.	.	.	.	8bb-\	-e	.	.	.	.	.
8C/J	.	8eJ 8G/	.	8r	.	.	.	.	.	.	.	.	8r	.	.	.	.	.	.
=37	=37	=37	=37	=37	=37	=37	=37	=37	=37	=37	=37	=37	=37	=37	=37	=37	=37	=37	=37
!	!	!	!	!	!LO:HP:b	!	!	!	!	!	!	!	!LO:LB:g=original	!	!	!	!	!	!
16r	.	16r	.	8aa\	<	2r	.	2r	.	2r	.	.	2aa\	pra-	.	.	.	.	.
16FF/LL	.	16A/LL	.	.	.	.	.	.	.	.	.	.	.	.	.	.	.	.	.
16GG/	.	16B-/	.	4aa\	.	.	.	.	.	.	.	.	.	.	.	.	.	.	.
!	!LO:DY:t=for	!	!	!	!	!	!	!	!	!	!	!	!	!	!	!	!	!	!
16AA/JJ	f	16c/JJ	.	.	.	.	.	.	.	.	.	.	.	.	.	.	.	.	.
16BB-/LL	.	16d/LL	.	.	.	.	.	.	.	.	.	.	.	.	.	.	.	.	.
16C/	.	16en/	.	.	.	.	.	.	.	.	.	.	.	.	.	.	.	.	.
16D/	.	16f/	.	8aa\	.	.	.	.	.	.	.	.	.	.	.	.	.	.	.
16En/JJ	.	16g/JJ	.	.	.	.	.	.	.	.	.	.	.	.	.	.	.	.	.
=38	=38	=38	=38	=38	=38	=38	=38	=38	=38	=38	=38	=38	=38	=38	=38	=38	=38	=38	=38
!	!	!	!	!	!	!	!	!	!	!	!	!	!	!	!	!LO:N:vis=0	!	!LO:N:vis=0	!
8F\L	p	8a/	.	8aa\L	.	2r	.	2r	.	2r	.	.	8aa\L	.	.	1r	.	1r	.
8G\	.	4f/	.	16gg\L	.	.	.	.	.	.	.	.	(16gg\L	.	.	.	.	.	.
.	.	.	.	16ff\JJ	.	.	.	.	.	.	.	.	16ff\JJ)	.	.	.	.	.	.
8A\	.	.	.	16een\LL	.	.	.	.	.	.	.	.	(16een\LL	.	.	.	.	.	.
.	.	.	.	16dd\	.	.	.	.	.	.	.	.	16dd\)	.	.	.	.	.	.
8B-\J	.	8f/	.	16cc\	.	.	.	.	.	.	.	.	(16cc\	.	.	.	.	.	.
.	.	.	.	16b-\JJ	.	.	.	.	.	.	.	.	16b-\JJ)	.	.	.	.	.	.
=39	=39	=39	=39	=39	=39	=39	=39	=39	=39	=39	=39	=39	=39	=39	=39	=39	=39	=39	=39
!	!	!LO:LB:g=original	!	!	!	!	!	!	!	!	!	!	!	!	!	!	!	!	!
*	*	*tremolo	*	*tremolo	*	*	*	*	*	*	*	*	*	*	*	*	*	*	*
!LO:TX:a:t=P:problem:mixed beam	!	!	!	!	!	!	!	!	!	!	!	!	!	!	!	!	!	!	!
8c\L	.	16f/LL	.	16a/LL	.	2r	.	2r	.	2r	.	.	4a\	-po-	.	.	.	.	.
.	.	16f/	.	16a/	.	.	.	.	.	.	.	.	.	.	.	.	.	.	.
8c\	.	16f/	.	16a/	.	.	.	.	.	.	.	.	.	.	.	.	.	.	.
.	.	16f/JJ	.	16a/JJ	.	.	.	.	.	.	.	.	.	.	.	.	.	.	.
8C/	.	16en/LL	.	16g/LL	.	.	.	.	.	.	.	.	8.g\L	.	.	.	.	.	.
.	.	16e/	.	16g/	.	.	.	.	.	.	.	.	.	.	.	.	.	.	.
8C/J	.	16e/	.	16g/	.	.	.	.	.	.	.	.	.	.	.	.	.	.	.
.	.	16e/JJ	.	16g/JJ	.	.	.	.	.	.	.	.	16g\Jk	-ni-	.	.	.	.	.
*	*	*Xtremolo	*	*Xtremolo	*	*	*	*	*	*	*	*	*	*	*	*	*	*	*
=40	=40	=40	=40	=40	=40	=40	=40	=40	=40	=40	=40	=40	=40	=40	=40	=40	=40	=40	=40
*	*	*	*	*	*	*	*	*	*	*	*	*	*	*	*	*2\right	*	*2\right	*
!LO:TX:b:t=mezza voce	!	!	!	!LO:TX:b:t=mezza voce	!	!	!	!	!	!	!	!	!	!	!	!	!	!	!LO:DY:t=po.
8F'\L	.	16f/LL	.	16f/LL	.	2r	.	2r	.	2r	.	.	4f\	-tur	.	2cc\	.	2cc\	p
!	!	!LO:TX:b:t=mezza voce	!	!	!	!	!	!	!	!	!	!	!	!	!	!	!	!	!
.	.	(16a/	.	16cc/	.	.	.	.	.	.	.	.	.	.	.	.	.	.	.
8C'\	.	16g/)	.	16b-/	.	.	.	.	.	.	.	.	.	.	.	.	.	.	.
.	.	16f/JJ	.	16a/JJ	.	.	.	.	.	.	.	.	.	.	.	.	.	.	.
8F'\	.	16r	.	16r	.	.	.	.	.	.	.	.	4r	.	.	.	.	.	.
.	.	16a/LL	.	16cc/LL	.	.	.	.	.	.	.	.	.	.	.	.	.	.	.
8C'\J	.	(16g/	.	16b-/	.	.	.	.	.	.	.	.	.	.	.	.	.	.	.
.	.	16f/JJ)	.	16a/JJ	.	.	.	.	.	.	.	.	.	.	.	.	.	.	.
=41	=41	=41	=41	=41	=41	=41	=41	=41	=41	=41	=41	=41	=41	=41	=41	=41	=41	=41	=41
!	!	!	!	!LO:LB:g=original	!	!	!	!	!	!	!	!	!	!	!	!	!	!	!
!	!	!	!	!	!	!	!	!	!	!	!	!	!LO:N:vis=0	!	!	!	!	!	!
8En'\L	.	16r	.	16r	.	2r	.	2r	.	2r	.	.	1r	.	.	2cc\	.	2cc\	.
.	.	(16g/LL	.	(16b-/LL	.	.	.	.	.	.	.	.	.	.	.	.	.	.	.
8C'\	.	16f/	.	16a/	.	.	.	.	.	.	.	.	.	.	.	.	.	.	.
.	.	16en/JJ)	.	16g/JJ)	.	.	.	.	.	.	.	.	.	.	.	.	.	.	.
8E'\	.	16r	.	16r	.	.	.	.	.	.	.	.	.	.	.	.	.	.	.
.	.	16g/LL	.	16b-/LL	.	.	.	.	.	.	.	.	.	.	.	.	.	.	.
8C'\J	.	16f/	.	16a/	.	.	.	.	.	.	.	.	.	.	.	.	.	.	.
.	.	16e/JJ	.	16g/JJ	.	.	.	.	.	.	.	.	.	.	.	.	.	.	.
=42	=42	=42	=42	=42	=42	=42	=42	=42	=42	=42	=42	=42	=42	=42	=42	=42	=42	=42	=42
8F'\L	.	16r	.	16r	.	2r	.	2r	.	2r	.	.	.	.	.	2cc\	.	2cc\	.
!	!	!	!LO:DY:b	!	!LO:DY:b:t=for	!	!	!	!	!	!	!	!	!	!	!	!	!	!
.	.	(16aa\LL	f	(16ccc\LL	f	.	.	.	.	.	.	.	.	.	.	.	.	.	.
8C'\	.	16gg\)	.	16bb-\	.	.	.	.	.	.	.	.	.	.	.	.	.	.	.
.	.	16ff'\JJ	.	16aa\JJ)	.	.	.	.	.	.	.	.	.	.	.	.	.	.	.
8F'\	.	16r	.	16r	.	.	.	.	.	.	.	.	.	.	.	.	.	.	.
.	.	(16aa\LL	.	(16ccc\LL	.	.	.	.	.	.	.	.	.	.	.	.	.	.	.
8C'\J	.	16gg\)	.	16bb-\	.	.	.	.	.	.	.	.	.	.	.	.	.	.	.
.	.	16ff'\JJ	.	16aa\JJ)	.	.	.	.	.	.	.	.	.	.	.	.	.	.	.
=43	=43	=43	=43	=43	=43	=43	=43	=43	=43	=43	=43	=43	=43	=43	=43	=43	=43	=43	=43
!LO:LB:g=original	!	!	!	!	!	!	!	!	!	!	!	!	!	!	!	!	!	!	!
8En\L	.	16r	.	16r	.	2r	.	2r	.	2r	.	.	2r	.	.	2cc\	.	2cc\	.
.	.	(16gg\LL	.	(16bb-\LL	.	.	.	.	.	.	.	.	.	.	.	.	.	.	.
8C\	.	16ff\)	.	16aa\	.	.	.	.	.	.	.	.	.	.	.	.	.	.	.
.	.	16een`\JJ	.	16gg\JJ)	.	.	.	.	.	.	.	.	.	.	.	.	.	.	.
8E\	.	16r	.	16r	.	.	.	.	.	.	.	.	.	.	.	.	.	.	.
.	.	(16gg\LL	.	((16bb-\LL	.	.	.	.	.	.	.	.	.	.	.	.	.	.	.
8C\J	.	16ff\)	.	16aa\)	.	.	.	.	.	.	.	.	.	.	.	.	.	.	.
.	.	16ee`\JJ	.	16gg\JJ)	.	.	.	.	.	.	.	.	.	.	.	.	.	.	.
=44	=44	=44	=44	=44	=44	=44	=44	=44	=44	=44	=44	=44	=44	=44	=44	=44	=44	=44	=44
!	!	!LO:LB:g=original	!	!	!	!	!	!	!	!	!	!	!	!	!	!	!	!LO:TX:a:t=P:problem:powinna być pauza 00	!
!	!	!	!LO:DY:b	!	!LO:DY:b:rj:t=pia&colon;	!	!	!	!	!	!	!LO:DY:a:t=Piano	!	!	!LO:DY:b:rj:t=po.	!	!	!LO:N:vis=0	!
*tremolo	*	*	*	*	*	*	*	*	*	*	*	*	*	*	*	*	*	*	*
8F\L	.	16r	p	16r	p	2r	.	2r	.	4f\	Quem	p	4.a\	quem	p	4f/	.	1r	.
.	.	(16a\LL	.	(16ff\LL	.	.	.	.	.	.	.	.	.	.	.	.	.	.	.
8F\	.	16g\	.	16een\	.	.	.	.	.	.	.	.	.	.	.	.	.	.	.
.	.	16a\JJ)	.	16ff\JJ)	.	.	.	.	.	.	.	.	.	.	.	.	.	.	.
8F\	.	16r	.	16r	.	.	.	.	.	4f\	in	.	.	.	.	4r	.	.	.
.	.	(16a\LL	.	(16ff\LL	.	.	.	.	.	.	.	.	.	.	.	.	.	.	.
8F\J	.	16g\	.	16ee\	.	.	.	.	.	.	.	.	8a\	in	.	.	.	.	.
.	.	16a\JJ)	.	16ff\JJ)	.	.	.	.	.	.	.	.	.	.	.	.	.	.	.
=45	=45	=45	=45	=45	=45	=45	=45	=45	=45	=45	=45	=45	=45	=45	=45	=45	=45	=45	=45
*	*	*	*	*	*	*	*	*	*	*2\right	*	*	*	*	*	*	*	*	*
8F\L	.	16r	.	16r	.	2r	.	2r	.	2g\	Sa-	.	2b-\	Sa-	.	2r	.	.	.
.	.	16g/LL	.	(16een\LL	.	.	.	.	.	.	.	.	.	.	.	.	.	.	.
8F\	.	(16f/	.	16dd\	.	.	.	.	.	.	.	.	.	.	.	.	.	.	.
.	.	16g/JJ)	.	16ee\JJ)	.	.	.	.	.	.	.	.	.	.	.	.	.	.	.
8F\	.	16r	.	16r	.	.	.	.	.	.	.	.	.	.	.	.	.	.	.
.	.	(16g/LL	.	(16ee\LL	.	.	.	.	.	.	.	.	.	.	.	.	.	.	.
8F\J	.	16f/	.	16dd\	.	.	.	.	.	.	.	.	.	.	.	.	.	.	.
.	.	16g/JJ)	.	16ee\JJ)	.	.	.	.	.	.	.	.	.	.	.	.	.	.	.
=46	=46	=46	=46	=46	=46	=46	=46	=46	=46	=46	=46	=46	=46	=46	=46	=46	=46	=46	=46
8F\L	.	16r	.	16r	.	2r	.	2r	.	2a\	-cra	.	2cc\	-cra	.	2f/	p	2ryy	.
.	.	(16cc\LL	.	(16ee-X\LL	.	.	.	.	.	.	.	.	.	.	.	.	.	.	.
8F\	.	16b-\	.	16dd\	.	.	.	.	.	.	.	.	.	.	.	.	.	.	.
.	.	16cc\JJ)	.	16ee-\JJ)	.	.	.	.	.	.	.	.	.	.	.	.	.	.	.
8F\	.	16r	.	16r	.	.	.	.	.	.	.	.	.	.	.	.	.	.	.
.	.	(16cc\LL	.	(16ee-\LL	.	.	.	.	.	.	.	.	.	.	.	.	.	.	.
8F\J	.	16b-\	.	16dd\	.	.	.	.	.	.	.	.	.	.	.	.	.	.	.
.	.	16cc\JJ)	.	16ee-\JJ)	.	.	.	.	.	.	.	.	.	.	.	.	.	.	.
=47	=47	=47	=47	=47	=47	=47	=47	=47	=47	=47	=47	=47	=47	=47	=47	=47	=47	=47	=47
!	!	!	!	!LO:LB:g=original	!	!	!	!	!	!	!	!	!	!	!	!	!	!	!
8F\L	.	16r	.	16r	.	2r	.	2r	.	2b-\	Men-	.	2dd\	Men-	.	2f/	.	2ryy	.
.	.	(16b-\LL	.	(16dd\LL	.	.	.	.	.	.	.	.	.	.	.	.	.	.	.
8F\	.	16a\	.	16cc\	.	.	.	.	.	.	.	.	.	.	.	.	.	.	.
.	.	16b-\JJ)	.	16dd\JJ)	.	.	.	.	.	.	.	.	.	.	.	.	.	.	.
8F\	.	16r	.	16r	.	.	.	.	.	.	.	.	.	.	.	.	.	.	.
.	.	(16b-\LL	.	(16dd\LL	.	.	.	.	.	.	.	.	.	.	.	.	.	.	.
8F\J	.	16a\	.	16cc\	.	.	.	.	.	.	.	.	.	.	.	.	.	.	.
.	.	16b-\JJ)	.	16dd\JJ)	.	.	.	.	.	.	.	.	.	.	.	.	.	.	.
=48	=48	=48	=48	=48	=48	=48	=48	=48	=48	=48	=48	=48	=48	=48	=48	=48	=48	=48	=48
!	!	!	!	!	!	!	!	!	!	!	!	!	!LO:LB:g=original	!	!	!	!	!	!
!	!	!	!	!	!	!	!	!	!	!	!	!	!	!	!	!LO:N:vis=0	!	!	!
8En\L	.	16r	.	16r	.	2r	.	2r	.	2g\	-sa	.	2een\	-sa	.	1r	.	2f/	p
.	.	(16b-\LL	.	(16dd-X\LL	.	.	.	.	.	.	.	.	.	.	.	.	.	.	.
8E\	.	16a\	.	16cc\	.	.	.	.	.	.	.	.	.	.	.	.	.	.	.
.	.	16b-\JJ)	.	16dd-\JJ)	.	.	.	.	.	.	.	.	.	.	.	.	.	.	.
8E\	.	16r	.	16r	.	.	.	.	.	.	.	.	.	.	.	.	.	.	.
.	.	(16b-\LL	.	(16dd-\LL	.	.	.	.	.	.	.	.	.	.	.	.	.	.	.
8E\J	.	16a\	.	16cc\	.	.	.	.	.	.	.	.	.	.	.	.	.	.	.
.	.	16b-\JJ)	.	16dd-\JJ)	.	.	.	.	.	.	.	.	.	.	.	.	.	.	.
*Xtremolo	*	*	*	*	*	*	*	*	*	*	*	*	*	*	*	*	*	*	*
=49	=49	=49	=49	=49	=49	=49	=49	=49	=49	=49	=49	=49	=49	=49	=49	=49	=49	=49	=49
!	!	!LO:LB:g=original	!	!	!	!	!	!	!	!LO:SIC:l:s=Coe-:v	!	!	!	!	!	!	!	!	!
8F\L	.	16r	.	16r	.	2r	.	2r	.	8a\	Ce-	.	8ff\	Coe	.	.	.	2f/	.
.	.	(16a/LL	.	(16cc\LL	.	.	.	.	.	.	.	.	.	.	.	.	.	.	.
!	!	!	!	!	!	!	!	!	!	!LO:SIC:l:s=-na:v	!	!	!	!	!	!	!	!	!
8F\J	.	16g/	.	16bn\	.	.	.	.	.	8a\	-nea	.	8ff\	na	.	.	.	.	.
.	.	16a/JJ)	.	16cc\JJ)	.	.	.	.	.	.	.	.	.	.	.	.	.	.	.
(16F\LL	.	16r	.	16r	.	.	.	.	.	4r	.	.	4r	.	.	.	.	.	.
16E-X\	.	(16a/LL	.	(16cc\LL	.	.	.	.	.	.	.	.	.	.	.	.	.	.	.
16D\	.	16g/	.	16b\	.	.	.	.	.	.	.	.	.	.	.	.	.	.	.
16C\JJ)	.	16a/JJ)	.	16cc\JJ)	.	.	.	.	.	.	.	.	.	.	.	.	.	.	.
=50	=50	=50	=50	=50	=50	=50	=50	=50	=50	=50	=50	=50	=50	=50	=50	=50	=50	=50	=50
!	!	!	!	!	!	!	!	!	!	!LO:LB:g=original	!	!	!	!	!	!LO:LB:g=original	!	!	!
!	!	!	!	!LO:TX:b:t=dolce.	!	!	!	!	!	!	!	!	!	!	!	!	!LO:DY:t=po	!	!
8BB-'/L	.	8d'/L	.	8b-X/L	.	2r	.	2r	.	2r	.	.	2r	.	.	2f/	p	2f/	.
8D'/	.	8f'/	.	8f/J	.	.	.	.	.	.	.	.	.	.	.	.	.	.	.
8BB-'/	.	8d'/	.	16r	.	.	.	.	.	.	.	.	.	.	.	.	.	.	.
.	.	.	.	16f'/LL	.	.	.	.	.	.	.	.	.	.	.	.	.	.	.
8D'/J	.	8f'/J	.	16f'/	.	.	.	.	.	.	.	.	.	.	.	.	.	.	.
.	.	.	.	16f'/JJ	.	.	.	.	.	.	.	.	.	.	.	.	.	.	.
=51	=51	=51	=51	=51	=51	=51	=51	=51	=51	=51	=51	=51	=51	=51	=51	=51	=51	=51	=51
8BB-'/L	.	8d'/L	.	16f`\LL	.	4r	.	4r	.	4r	.	.	4r	.	.	2f/	.	2f/	.
.	.	.	.	(16dd\	.	.	.	.	.	.	.	.	.	.	.	.	.	.	.
8D'/	.	8f'/	.	16cc\	.	.	.	.	.	.	.	.	.	.	.	.	.	.	.
.	.	.	.	16b-\JJ)	.	.	.	.	.	.	.	.	.	.	.	.	.	.	.
!	!	!	!	!	!	!	!	!	!	!	!	!	!	!	!LO:DY:b:t=for	!	!	!	!
8BB-'/	.	8d'/	.	16f`\LL	.	8B-\	Tur-	8B-\	Tur-	8f\	Tur	.	8dd\	Tur-	f	.	.	.	.
.	.	.	.	(16dd\	.	.	.	.	.	.	.	.	.	.	.	.	.	.	.
8D'/J	.	8f'/J	.	16cc\	.	8B-\	-ba	8B-\	-ba	8f\	-ba	.	8dd\	-ba	.	.	.	.	.
.	.	.	.	16b-\JJ)	.	.	.	.	.	.	.	.	.	.	.	.	.	.	.
=52	=52	=52	=52	=52	=52	=52	=52	=52	=52	=52	=52	=52	=52	=52	=52	=52	=52	=52	=52
!LO:LB:g=original	!	!	!	!	!	!	!	!	!	!	!	!	!	!	!	!	!	!	!
8AA'/L	.	8c'/L	.	8cc\L	.	8A\	fra-	8c\	Fra-	8f\	fra-	.	8ee-\	Fra-	.	2f/	.	2f/	.
8C'/	.	8e-'/	.	8f\J	.	8A\	-trum	8c\	-trum	8f\	-trum	.	8ee-\	-trum	.	.	.	.	.
8AA'/	.	8c'/	.	16r	.	8A\	du-	8c\	du-	8f\	du-	.	8ee-\	du-	.	.	.	.	.
.	.	.	.	16f'/LL	.	.	.	.	.	.	.	.	.	.	.	.	.	.	.
8C'/J	.	8e-'/J	.	16f'/	.	8A\	-o	8c\	-o	8f\	-o	.	8ee-\	-o	.	.	.	.	.
.	.	.	.	16f'/JJ	.	.	.	.	.	.	.	.	.	.	.	.	.	.	.
=53	=53	=53	=53	=53	=53	=53	=53	=53	=53	=53	=53	=53	=53	=53	=53	=53	=53	=53	=53
!	!	!	!	!	!	!LO:LB:g=original	!	!	!	!	!	!	!	!	!	!	!	!	!
8AA'/L	.	8c'/L	.	16f`\LL	.	4A\	de-	4c\	de-	4f\	de-	.	4ee-\	de-	.	2f/	.	2f/	.
.	.	.	.	(16ee-\	.	.	.	.	.	.	.	.	.	.	.	.	.	.	.
8C'/	.	8e-'/	.	16dd\	.	.	.	.	.	.	.	.	.	.	.	.	.	.	.
.	.	.	.	16cc\JJ)	.	.	.	.	.	.	.	.	.	.	.	.	.	.	.
8AA'/	.	8c'/	.	16f`\LL	.	4c\	-na	4A\	-na	4f\	-na	.	4ee-\	-na	.	.	.	.	.
.	.	.	.	(16ee-\	.	.	.	.	.	.	.	.	.	.	.	.	.	.	.
8C'/J	.	8e-'/J	.	16dd\	.	.	.	.	.	.	.	.	.	.	.	.	.	.	.
.	.	.	.	16cc\JJ)	.	.	.	.	.	.	.	.	.	.	.	.	.	.	.
=54	=54	=54	=54	=54	=54	=54	=54	=54	=54	=54	=54	=54	=54	=54	=54	=54	=54	=54	=54
!	!	!	!	!LO:LB:g=original	!	!	!	!LO:LB:g=original	!	!	!	!	!	!	!	!	!	!	!
8BB-/L	.	8.d/L	.	8.dd\L	.	8.B-\L	Fra-	8.d\L	Fra-	2r	.	.	2r	.	.	2f/	.	2f/	.
8FF/	.	.	.	.	.	.	.	.	.	.	.	.	.	.	.	.	.	.	.
.	.	16e-/Jk	.	16ee-\Jk	.	16c\Jk	.	16e-\Jk	.	.	.	.	.	.	.	.	.	.	.
8BB-/	.	(16g/LL	.	16gg\LL	.	(16e-\LL	.	(16g\LL	.	.	.	.	.	.	.	.	.	.	.
.	.	16f/	.	(16ff\	.	16d\)	.	16f\)	.	.	.	.	.	.	.	.	.	.	.
8FF/J	.	16e-/)	.	16ee-\	.	(16c\	.	(16e-\	.	.	.	.	.	.	.	.	.	.	.
.	.	16d/JJ	.	16dd\JJ)	.	16B-\JJ)	.	16d\JJ)	.	.	.	.	.	.	.	.	.	.	.
=55	=55	=55	=55	=55	=55	=55	=55	=55	=55	=55	=55	=55	=55	=55	=55	=55	=55	=55	=55
!	!	!	!	!	!	!	!	!	!	!	!	!	!LO:LB:g=original	!	!	!	!	!LO:LB:g=original	!
8AA/L	.	16d/LL	.	(16dd\LL	.	16B-\LL	.	(16d\LL	.	4r	.	.	4r	.	.	2f/	.	2f/	.
.	.	16c/	.	16cc\)	.	(16A\	.	16c\)	.	.	.	.	.	.	.	.	.	.	.
8FF/	.	(16Bn/	.	(16bn\	.	(16G\)	.	(16Bn\	.	.	.	.	.	.	.	.	.	.	.
.	.	16c/JJ)	.	16cc\JJ)	.	16A\JJ)	.	16c\JJ)	.	.	.	.	.	.	.	.	.	.	.
!	!	!	!	!LO:TX:a:t=P:problem:mixed beam	!	!	!	!	!	!	!	!	!	!	!	!	!	!	!
8AA/	.	16c/LL	rfz	(>16cc\LL	.	8A\	-trum	8c\	-trum	16r	.	.	16r	.	.	.	.	.	.
.	.	(16A/	.	16c/	.	.	.	.	.	(16a\LL	da-	.	(16cc\LL	da-	.	.	.	.	.
8FF/J	.	16B-X/	.	16d/	.	8r	.	8r	.	16b-\	.	.	16dd\	.	.	.	.	.	.
!	!	!	!	!	!LO:DY:b	!	!	!	!	!	!	!	!	!	!	!	!	!	!
.	.	16c/JJ)	.	16e-/JJ)	f	.	.	.	.	16cc\JJ)	.	.	16ee-\JJ)	.	.	.	.	.	.
=56	=56	=56	=56	=56	=56	=56	=56	=56	=56	=56	=56	=56	=56	=56	=56	=56	=56	=56	=56
!	!	!LO:LB:g=original	!	!	!	!	!	!	!	!LO:LB:g=original	!	!	!	!	!	!	!	!	!
.	.	.	.	8qd/	.	.	.	.	.	.	.	.	.	.	.	.	.	.	.
8BB-/L	.	8.d/L	.	8.dd\L	.	8.B-\L	Fra-	8.d\L	Fra-	8b-\	-tum	.	8dd\	-tum	.	2f/	.	2r	.
8FF/	.	.	.	.	.	.	.	.	.	8r	.	.	8r	.	.	.	.	.	.
.	.	16e-/Jk	.	16ee-\Jk	.	16c\Jk	.	16e-\Jk	.	.	.	.	.	.	.	.	.	.	.
8BB-/	.	(16g/LL	.	16gg\LL	.	(16e-\LL	.	(16g\LL	.	4r	.	.	4r	.	.	.	.	.	.
.	.	16f/	.	(16ff\	.	16d\JJ)	.	16f\)	.	.	.	.	.	.	.	.	.	.	.
8FF/J	.	16e-/)	.	16ee-\	.	(16c\LL	.	(16e-\	.	.	.	.	.	.	.	.	.	.	.
.	.	16d/JJ	.	16dd\JJ)	.	16B-\JJ)	.	16d\JJ)	.	.	.	.	.	.	.	.	.	.	.
=57	=57	=57	=57	=57	=57	=57	=57	=57	=57	=57	=57	=57	=57	=57	=57	=57	=57	=57	=57
!	!	!	!	!	!	!	!	!	!	!	!	!	!	!	!	!	!	!.	!
8AA/L	.	16d/LL	.	16dd\LL	.	(16B-\LL	.	(16d\LL	.	4r	.	.	4r	.	.	2f/	.	8b-\L	f
.	.	(16c/	.	(16cc\	.	16A\)	.	16c\)	.	.	.	.	.	.	.	.	.	.	.
8FF/	.	16Bn/)	.	16bn\	.	(16G\	.	(16Bn\	.	.	.	.	.	.	.	.	.	8b-\	.
.	.	16c/JJ	.	16cc\JJ)	.	16A\JJ)	.	16c\JJ)	.	.	.	.	.	.	.	.	.	.	.
!	!	!zando	!	!LO:TX:a:t=P:problem:mixed beam	!	!	!	!	!	!	!	!	!	!	!	!	!	!	!
8AA/	.	16c/LL	.	16cc`\LL	.	8A\	-trum	8c\	-trum	16r	.	.	16r	.	.	.	.	8b-\J	.
.	.	(16A/	.	16c/	rfz	.	.	.	.	(16a\LL	da-	.	(16cc\LL	da-	.	.	.	.	.
8FF/J	.	16B-X/)	.	16d/	.	8r	.	8r	.	16b-\	.	.	16dd\	.	.	.	.	8r	.
.	.	16c/JJ	.	16e-/JJ	.	.	.	.	.	16cc\JJ)	.	.	16ee-\JJ)	.	.	.	.	.	.
=58	=58	=58	=58	=58	=58	=58	=58	=58	=58	=58	=58	=58	=58	=58	=58	=58	=58	=58	=58
!	!	!	!	!	!	!LO:LB:g=original	!	!	!	!	!	!	!	!	!	!	!	!	!
!	!	!	!	!LO:TX:a:t=P:problem:mixed beam	!	!	!	!	!	!	!	!	!	!	!	!	!	!	!
8BB-/L	.	8d'/L	.	24d'/LL	.	2r	.	2r	.	8b-\	-tum	.	8dd\	-tum	.	2r	.	2r	.
.	.	.	.	24b-'\	.	.	.	.	.	.	.	.	.	.	.	.	.	.	.
.	.	.	.	24b-'\JJ	.	.	.	.	.	.	.	.	.	.	.	.	.	.	.
8D/	.	8f'/	.	24b-'\LL	.	.	.	.	.	8r	.	.	8r	.	.	.	.	.	.
.	.	.	.	24b-'\	.	.	.	.	.	.	.	.	.	.	.	.	.	.	.
.	.	.	.	24b-'\JJ	.	.	.	.	.	.	.	.	.	.	.	.	.	.	.
8BB-/	.	8d'/	.	24b-'\LL	.	.	.	.	.	4r	.	.	4r	.	.	.	.	.	.
.	.	.	.	24b-'\	.	.	.	.	.	.	.	.	.	.	.	.	.	.	.
.	.	.	.	24b-'\JJ	.	.	.	.	.	.	.	.	.	.	.	.	.	.	.
8D/J	.	8f'/J	.	24b-'\LL	.	.	.	.	.	.	.	.	.	.	.	.	.	.	.
.	.	.	.	24b-'\	.	.	.	.	.	.	.	.	.	.	.	.	.	.	.
.	.	.	.	24b-'\JJ	.	.	.	.	.	.	.	.	.	.	.	.	.	.	.
=59	=59	=59	=59	=59	=59	=59	=59	=59	=59	=59	=59	=59	=59	=59	=59	=59	=59	=59	=59
!	!LO:DY:for.	!LO:TX:a:t=P:problem:mixed beam	!	!	!	!	!	!	!	!	!	!	!	!	!	!	!	!	!
24BB-/LL	f	24d/LL	.	24b-\LL	.	8B-\	non	8d\	non	8a-X\	non	.	8ff\	non	.	8d/L	f	8cc\L	.
!	!	!	!	!	!LO:DY:b:t=for.	!	!	!	!	!	!	!	!	!	!	!	!	!	!
24D/	.	24ff\	.	24aa-X'\	f	.	.	.	.	.	.	.	.	.	.	.	.	.	.
!	!	!	!LO:DY:b	!	!	!	!	!	!	!	!	!	!	!	!	!	!	!	!
24D/JJ	.	24ff\JJ	f	24aa-'\JJ	.	.	.	.	.	.	.	.	.	.	.	.	.	.	.
*	*	*	*	*	*	*	*ij	*	*	*	*ij	*	*	*ij	*	*	*	*	*
24D/LL	.	24ff\LL	.	24aa-'\LL	.	8B-\	non	8d\	non	8a-\	non	.	8ff\	non	.	8d/	.	8cc\	.
24D/	.	24ff\	.	24aa-'\	.	.	.	.	.	.	.	.	.	.	.	.	.	.	.
24D/JJ	.	24ff\JJ	.	24aa-'\JJ	.	.	.	.	.	.	.	.	.	.	.	.	.	.	.
!LO:LB:g=original	!	!	!	!	!	!	!	!LO:LB:g=original	!	!	!	!	!	!	!	!	!	!	!
8D\	.	8ff\	.	8aa-\	.	8B-\	non	8d\	non	8a-\	non	.	8ff\	non	.	8d/J	.	8cc\J	.
*	*	*	*	*	*	*	*Xij	*	*	*	*Xij	*	*	*Xij	*	*	*	*	*
8r	.	8r	.	8r	.	8r	.	8r	.	8r	.	.	8r	.	.	8r	.	8r	.
=60	=60	=60	=60	=60	=60	=60	=60	=60	=60	=60	=60	=60	=60	=60	=60	=60	=60	=60	=60
!	!	!	!	!LO:LB:g=original	!LO:DY:b:t=pia&colon.	!	!	!	!	!	!	!	!	!	!	!	!	!	!
8r	.	8r	.	(24aa\LL	p	2r	.	8r	.	2r	.	.	8r	.	.	2r	.	2r	.
.	.	.	.	24gg\)	.	.	.	.	.	.	.	.	.	.	.	.	.	.	.
.	.	.	.	24gg\JJ	.	.	.	.	.	.	.	.	.	.	.	.	.	.	.
!	!	!	!LO:DY:b	!	!	!	!	!	!	!	!	!	!LO:TX:b:t=P:problem:zamazany tekst w tym takcie	!	!	!	!	!	!
8An\	p	8ee-\	p	24gg\LL	.	.	.	8e-\	non	.	.	.	8gg\	.	.	.	.	.	.
.	.	.	.	24gg\	.	.	.	.	.	.	.	.	.	.	.	.	.	.	.
.	.	.	.	24gg\JJ	.	.	.	.	.	.	.	.	.	.	.	.	.	.	.
8r	.	8r	.	(24gg\LL	.	.	.	8r	.	.	.	.	8r	.	.	.	.	.	.
.	.	.	.	24ff\)	.	.	.	.	.	.	.	.	.	.	.	.	.	.	.
.	.	.	.	24ff\JJ	.	.	.	.	.	.	.	.	.	.	.	.	.	.	.
*	*	*	*	*	*	*	*	*	*ij	*	*	*	*	*	*	*	*	*	*
8B-\	.	8dd\	.	24ff\LL	.	.	.	8d\	non	.	.	.	8ff\	.	.	.	.	.	.
*	*	*	*	*	*	*	*	*	*Xij	*	*	*	*	*	*	*	*	*	*
.	.	.	.	24ff\	.	.	.	.	.	.	.	.	.	.	.	.	.	.	.
.	.	.	.	24ff\JJ	.	.	.	.	.	.	.	.	.	.	.	.	.	.	.
=61	=61	=61	=61	=61	=61	=61	=61	=61	=61	=61	=61	=61	=61	=61	=61	=61	=61	=61	=61
!	!	!	!	!	!LO:DY:b	!	!	!	!	!	!	!	!LO:LB:g=original	!	!	!	!	!	!
8r	.	8r	.	(24ff\LL	f	8r	.	8r	.	8r	.	.	8r	.	.	8r	.	8r	.
.	.	.	.	24een\)	.	.	.	.	.	.	.	.	.	.	.	.	.	.	.
.	.	.	.	24ee'\JJ	.	.	.	.	.	.	.	.	.	.	.	.	.	.	.
!	!LO:DY:t=for	!LO:TUP:a:problem:klamra łukowa, kropka zamiast numeru	!	!	!	!	!	!	!	!	!	!	!	!	!	!LO:TX:a:t=P:problem:mixed beam	!	!	!
8G'\L	f	24cc\LL	.	24ee'\LL	.	8G\	non	8c\	non	8b-\	non	.	8een\	non	.	8cc\L	.	8cc\L	.
!	!	!	!LO:DY:b	!	!	!	!	!	!	!	!	!	!	!	!	!	!	!	!
.	.	24cc\	f	24ee'\	.	.	.	.	.	.	.	.	.	.	.	.	.	.	.
.	.	24cc\JJ	.	24ee'\JJ	.	.	.	.	.	.	.	.	.	.	.	.	.	.	.
*	*	*	*	*	*	*	*ij	*	*ij	*	*ij	*	*	*ij	*	*	*	*	*
8F'\J	.	8cc\	.	8ee-X`\	.	8F\	non	8c\	non	8an\	non	.	8ee-X\	non	.	8f/J	.	8cc\J	.
*	*	*	*	*	*	*	*Xij	*	*Xij	*	*Xij	*	*	*Xij	*	*	*	*	*
8r	.	8r	.	8r	.	8r	.	8r	.	8r	.	.	8r	.	.	8r	.	8r	.
=62	=62	=62	=62	=62	=62	=62	=62	=62	=62	=62	=62	=62	=62	=62	=62	=62	=62	=62	=62
!	!	!LO:LB:g=original	!	!	!	!	!	!	!	!	!	!	!	!	!	!	!	!	!
*	*	*	*	*	*	*2\right	*	*2\right	*	*	*	*	*	*	*	*	*	*	*
!	!LO:DY:po.	!	!	!	!LO:DY:b	!	!	!	!	!	!	!	!	!	!	!	!	!	!
8B-\L	p	16r	.	16r	p	2F\	am-	2B-\	am-	2f\	am-	.	2dd\	am-	.	2f/	.	2f/	.
!	!	!	!LO:DY:b:t=pia.	!	!	!	!	!	!	!	!	!	!	!	!	!	!	!	!
.	.	(16dd\LL	p	(16ff\LL	.	.	.	.	.	.	.	.	.	.	.	.	.	.	.
8F\	.	16cc\	.	16ee-X\	.	.	.	.	.	.	.	.	.	.	.	.	.	.	.
.	.	16b-\JJ)	.	16dd\JJ)	.	.	.	.	.	.	.	.	.	.	.	.	.	.	.
8B-\	.	16r	.	16r	.	.	.	.	.	.	.	.	.	.	.	.	.	.	.
.	.	(16dd\LL	.	(16ff\LL	.	.	.	.	.	.	.	.	.	.	.	.	.	.	.
8F\J	.	16cc\	.	16ee-\	.	.	.	.	.	.	.	.	.	.	.	.	.	.	.
.	.	16b-\JJ)	.	16dd\JJ)	.	.	.	.	.	.	.	.	.	.	.	.	.	.	.
=63	=63	=63	=63	=63	=63	=63	=63	=63	=63	=63	=63	=63	=63	=63	=63	=63	=63	=63	=63
!	!	!	!	!	!	!	!	!	!	!LO:LB:g=original	!	!	!	!	!	!	!	!	!
8A\L	.	16r	.	16r	.	4.F\	-bi-	4.A\	-bi-	4.f\	-bi-	.	4.cc\	-bi-	.	2f/	.	2f/	.
.	.	(16cc\LL	.	(16ee-\LL	.	.	.	.	.	.	.	.	.	.	.	.	.	.	.
8F\	.	16b-\	.	16dd\	.	.	.	.	.	.	.	.	.	.	.	.	.	.	.
.	.	16a\JJ)	.	16cc\JJ)	.	.	.	.	.	.	.	.	.	.	.	.	.	.	.
8A\	.	16r	.	16r	.	.	.	.	.	.	.	.	.	.	.	.	.	.	.
.	.	(16cc\LL	.	(16ee-\LL	.	.	.	.	.	.	.	.	.	.	.	.	.	.	.
8F\J	.	16b-\	.	16dd\	.	8F\	-gi-	8A\	-gi-	8f\	-gi-	.	8cc\	-gi-	.	.	.	.	.
.	.	16a\JJ)	.	16cc\JJ)	.	.	.	.	.	.	.	.	.	.	.	.	.	.	.
=64	=64	=64	=64	=64	=64	=64	=64	=64	=64	=64	=64	=64	=64	=64	=64	=64	=64	=64	=64
!	!	!	!	!	!	!	!	!	!	!	!	!	!	!	!	!LO:LB:g=original	!	!	!
8BB-/L	.	8d'/L	.	24b-'\LL	.	4BB-/	-tur	4B-\	-tur	4f\	-tur	.	4dd\	-tur	.	2r	.	2r	.
.	.	.	.	24b-'\	.	.	.	.	.	.	.	.	.	.	.	.	.	.	.
.	.	.	.	24b-'\JJ	.	.	.	.	.	.	.	.	.	.	.	.	.	.	.
8D/J	.	8f'/	.	24b-'\LL	.	.	.	.	.	.	.	.	.	.	.	.	.	.	.
.	.	.	.	24b-'\	.	.	.	.	.	.	.	.	.	.	.	.	.	.	.
.	.	.	.	24b-'\JJ	.	.	.	.	.	.	.	.	.	.	.	.	.	.	.
8BB-/L	.	8d'/	.	24b-'\LL	.	4r	.	4r	.	4r	.	.	4r	.	.	.	.	.	.
.	.	.	.	24b-'\	.	.	.	.	.	.	.	.	.	.	.	.	.	.	.
.	.	.	.	24b-'\JJ	.	.	.	.	.	.	.	.	.	.	.	.	.	.	.
8D/J	.	8f'/J	.	24b-'\LL	.	.	.	.	.	.	.	.	.	.	.	.	.	.	.
.	.	.	.	24b-'\	.	.	.	.	.	.	.	.	.	.	.	.	.	.	.
.	.	.	.	24b-'\JJ	.	.	.	.	.	.	.	.	.	.	.	.	.	.	.
=65	=65	=65	=65	=65	=65	=65	=65	=65	=65	=65	=65	=65	=65	=65	=65	=65	=65	=65	=65
!LO:LB:g=original	!	!	!	!	!	!LO:LB:g=original	!	!	!	!	!	!	!	!	!	!	!	!	!
!	!	!LO:TX:a:t=P:problem:mixed beam	!	!	!	!	!	!	!	!	!	!	!	!	!	!	!	!	!
8BBn/L	f	24d/LL	.	24bn\LL	.	4Bn\	da-	4d\	da-	4a-X\	da-	.	4ff\	da-	.	8r	.	8r	.
!	!	!	!	!	!LO:DY:b	!	!	!	!	!	!	!	!	!	!	!	!	!	!
.	.	24ff\	.	24aa-X\	f	.	.	.	.	.	.	.	.	.	.	.	.	.	.
!	!	!	!LO:DY:b:t=for.	!	!	!	!	!	!	!	!	!	!	!	!	!	!	!	!
.	.	24ff\JJ	f	24aa-\JJ	.	.	.	.	.	.	.	.	.	.	.	.	.	.	.
8D/	.	24ff\LL	.	24aa-\LL	.	.	.	.	.	.	.	.	.	.	.	8d/L	.	8b-\L	.
.	.	24ff\	.	24aa-\	.	.	.	.	.	.	.	.	.	.	.	.	.	.	.
.	.	24ff\JJ	.	24aa-\JJ	.	.	.	.	.	.	.	.	.	.	.	.	.	.	.
!	!	!	!	!	!	!	!	!LO:LB:g=original	!	!	!	!	!	!	!	!	!	!	!
8BB/J	.	8ff\	.	8aa-\	.	8B\	-tum	8d\	-tum	8a-\	-tum	.	8ff\	-tum	.	8d/J	.	8b-\J	.
8r	.	8r	.	8r	.	8r	.	8r	.	8r	.	.	8r	.	.	8r	.	8r	.
=66	=66	=66	=66	=66	=66	=66	=66	=66	=66	=66	=66	=66	=66	=66	=66	=66	=66	=66	=66
!	!	!	!	!LO:LB:g=original	!LO:DY:b:t=pia.	!	!	!	!	!	!	!	!	!	!	!	!	!LO:LB:g=original	!
8r	.	8r	.	24aa-X\LL	p	2r	.	8r	.	2r	.	.	8r	.	.	2r	.	2r	.
.	.	.	.	24gg\	.	.	.	.	.	.	.	.	.	.	.	.	.	.	.
.	.	.	.	24gg\JJ	.	.	.	.	.	.	.	.	.	.	.	.	.	.	.
!	!LO:DY:t=po.	!	!	!	!	!	!	!	!	!	!	!	!	!	!	!	!	!	!
8An\	p	8ee-\	.	24gg\LL	.	.	.	8e-\	non	.	.	.	8gg\	non	.	.	.	.	.
.	.	.	.	24gg\	.	.	.	.	.	.	.	.	.	.	.	.	.	.	.
.	.	.	.	24gg\JJ	.	.	.	.	.	.	.	.	.	.	.	.	.	.	.
8r	.	8r	.	24gg\LL	.	.	.	8r	.	.	.	.	8r	.	.	.	.	.	.
.	.	.	.	24ff\	.	.	.	.	.	.	.	.	.	.	.	.	.	.	.
.	.	.	.	24ff\JJ	.	.	.	.	.	.	.	.	.	.	.	.	.	.	.
*	*	*	*	*	*	*	*	*	*ij	*	*	*	*	*ij	*	*	*	*	*
8B-\	.	8dd\	.	24ff\LL	.	.	.	8d\	non	.	.	.	8ff\	non	.	.	.	.	.
*	*	*	*	*	*	*	*	*	*Xij	*	*	*	*	*Xij	*	*	*	*	*
.	.	.	.	24ff\	.	.	.	.	.	.	.	.	.	.	.	.	.	.	.
.	.	.	.	24ff\JJ	.	.	.	.	.	.	.	.	.	.	.	.	.	.	.
=67	=67	=67	=67	=67	=67	=67	=67	=67	=67	=67	=67	=67	=67	=67	=67	=67	=67	=67	=67
!	!	!LO:LB:g=original	!	!	!LO:DY:b	!	!	!	!	!	!	!	!	!	!	!	!	!	!
8r	.	16r	.	(24ff\LL	f	8r	.	8r	.	8r	.	.	8r	.	.	8r	.	8r	.
.	.	.	.	24een\)	.	.	.	.	.	.	.	.	.	.	.	.	.	.	.
.	.	16r	.	.	.	.	.	.	.	.	.	.	.	.	.	.	.	.	.
.	.	.	.	24ee'\JJ	.	.	.	.	.	.	.	.	.	.	.	.	.	.	.
!	!LO:DY:t=for	!LO:TUP:a:problem:klamra łukowa, kropka zamiast numeru	!LO:DY:b:t=for	!	!	!	!	!	!	!	!	!	!	!	!	!LO:TX:a:t=P:problem:mixed beam	!	!	!
(8G\L	f	24cc\LL	f	24ee'\LL	.	8G\	non	8c\	non	8b-\	non	.	8een\	non	.	8cc\L	.	8cc\L	.
.	.	24cc\	.	24ee'\	.	.	.	.	.	.	.	.	.	.	.	.	.	.	.
.	.	24cc\JJ	.	24ee'\JJ	.	.	.	.	.	.	.	.	.	.	.	.	.	.	.
*	*	*	*	*	*	*	*ij	*	*ij	*	*ij	*	*	*ij	*	*	*	*	*
8F\J)	.	8cc\	.	8ee-X\	.	8F\	non	8c\	non	8a\	non	.	8ee-X\	non	.	8f/J	.	8cc\J	.
*	*	*	*	*	*	*	*Xij	*	*Xij	*	*Xij	*	*	*Xij	*	*	*	*	*
8r	.	8r	.	8r	.	8r	.	8r	.	8r	.	.	8r	.	.	8r	.	8r	.
=68	=68	=68	=68	=68	=68	=68	=68	=68	=68	=68	=68	=68	=68	=68	=68	=68	=68	=68	=68
!	!LO:DY:t=po.	!	!	!	!	!	!	!	!	!	!	!	!LO:LB:g=original	!	!	!	!	!	!
8B-\L	p	16r	.	16r	.	2F\	am-	2B-\	am-	2f\	am-	.	2dd\	am-	.	2f/	.	2f/	.
!	!	!	!LO:DY:b	!	!LO:DY:b:i:t=pia.	!	!	!	!	!	!	!	!	!	!	!	!	!	!
.	.	(16dd\LL	p	(16ff\LL	p	.	.	.	.	.	.	.	.	.	.	.	.	.	.
8F\	.	16cc\	.	16ee-X\	.	.	.	.	.	.	.	.	.	.	.	.	.	.	.
.	.	16b-\JJ)	.	16dd\JJ)	.	.	.	.	.	.	.	.	.	.	.	.	.	.	.
8B-\	.	16r	.	16r	.	.	.	.	.	.	.	.	.	.	.	.	.	.	.
.	.	(16dd\LL	.	(16ff\LL	.	.	.	.	.	.	.	.	.	.	.	.	.	.	.
8F\J	.	16cc\	.	16ee-\	.	.	.	.	.	.	.	.	.	.	.	.	.	.	.
.	.	16b-\JJ)	.	16dd\JJ)	.	.	.	.	.	.	.	.	.	.	.	.	.	.	.
=69	=69	=69	=69	=69	=69	=69	=69	=69	=69	=69	=69	=69	=69	=69	=69	=69	=69	=69	=69
8A\L	.	16r	.	16r	.	4.F\	-bi-	4.A\	-bi-	4.f\	-bi-	.	4.cc\	-bi-	.	2f/	.	2f/	.
.	.	(16cc\LL	.	(16ee-\LL	.	.	.	.	.	.	.	.	.	.	.	.	.	.	.
8F\	.	16b-\	.	16dd\	.	.	.	.	.	.	.	.	.	.	.	.	.	.	.
.	.	16a\JJ)	.	16cc\JJ)	.	.	.	.	.	.	.	.	.	.	.	.	.	.	.
8A\	.	16r	.	16r	.	.	.	.	.	.	.	.	.	.	.	.	.	.	.
.	.	(16cc\LL	.	(16ee-\LL	.	.	.	.	.	.	.	.	.	.	.	.	.	.	.
8F\J	.	16b-\	.	16dd\	.	8F\	-gi-	8A\	-gi-	8f\	-gi-	.	8cc\	-gi-	.	.	.	.	.
.	.	16a\JJ)	.	16cc\JJ)	.	.	.	.	.	.	.	.	.	.	.	.	.	.	.
=70	=70	=70	=70	=70	=70	=70	=70	=70	=70	=70	=70	=70	=70	=70	=70	=70	=70	=70	=70
*	*	*	*	*^	*	*	*	*	*	*	*	*	*	*	*	*	*	*	*
!	!LO:DY:t=for.	!	!	!	!	!	!	!	!	!	!	!	!	!	!	!	!	!	!	!
8BB-/L	f	8d'/L	.	24b-/LL	2d/	.	4BB-/	-tur	4B-\	-tur	4f\	-tur	.	4dd\	-tur.	.	8B-/L	.	8d/L	f
.	.	.	.	24b-/	.	.	.	.	.	.	.	.	.	.	.	.	.	.	.	.
.	.	.	.	24b-/JJ	.	.	.	.	.	.	.	.	.	.	.	.	.	.	.	.
8D/	.	8f'/	.	24b-/LL	.	.	.	.	.	.	.	.	.	.	.	.	8d/	.	8f/	.
.	.	.	.	24b-/	.	.	.	.	.	.	.	.	.	.	.	.	.	.	.	.
.	.	.	.	24b-/JJ	.	.	.	.	.	.	.	.	.	.	.	.	.	.	.	.
8BB-/	.	8d'/	.	24b-/LL	.	.	4r	.	4r	.	4r	.	.	4r	.	.	8B-/	.	8d/	.
.	.	.	.	24b-/	.	.	.	.	.	.	.	.	.	.	.	.	.	.	.	.
.	.	.	.	24b-/JJ	.	.	.	.	.	.	.	.	.	.	.	.	.	.	.	.
8D/J	.	8f'/J	.	24b-/LL	.	.	.	.	.	.	.	.	.	.	.	.	8d/J	.	8f/J	.
.	.	.	.	24b-/	.	.	.	.	.	.	.	.	.	.	.	.	.	.	.	.
.	.	.	.	24b-/JJ	.	.	.	.	.	.	.	.	.	.	.	.	.	.	.	.
*	*	*	*	*v	*v	*	*	*	*	*	*	*	*	*	*	*	*	*	*	*
=71	=71	=71	=71	=71	=71	=71	=71	=71	=71	=71	=71	=71	=71	=71	=71	=71	=71	=71	=71
8BB-/L	.	8d'/L	.	8b-L 8d/	.	2r	.	2r	.	2r	.	.	2r	.	.	8B-/L	.	8d/L	.
8D/	.	8f'/	.	8bb- 8b- 8d/	.	.	.	.	.	.	.	.	.	.	.	8d/	.	8f/	.
8BB-/J	.	8d'/J	.	8bb-J 8b- 8d/	.	.	.	.	.	.	.	.	.	.	.	8B-/J	.	8d/J	.
8r	.	8r	.	8r	.	.	.	.	.	.	.	.	.	.	.	8r	.	8r	.
==	==	==	==	==	==	==	==	==	==	==	==	==	==	==	==	==	==	==	==
*-	*-	*-	*-	*-	*-	*-	*-	*-	*-	*-	*-	*-	*-	*-	*-	*-	*-	*-	*-
!!!system-decoration: [g1][g2][g3]
!!!RDF**kern: i = editorial accidental
!!!RDF**kern: > = above
!!!RDF**kern: < = below
!!!RDF**dynam: < = "cresc:"
!!!RDF**dynam: p = "po:"
!!!RDF**dynam: f = "for:"
!!!RDF**dynam: rfz = "rinfor"
!!!ENC: Marta Lawrence
!!!END: 2020-06-26
!!!ENC: Anastazja Marusiak
!!!END: 2020-04-24
